; generated by Slic3r 1.3.0-dev on 2018-09-22 at 14:18:23

; external perimeters extrusion width = 0.44mm (3.38mm^3/s)
; perimeters extrusion width = 0.48mm (7.54mm^3/s)
; infill extrusion width = 0.48mm (10.05mm^3/s)
; solid infill extrusion width = 0.48mm (2.51mm^3/s)
; top infill extrusion width = 0.48mm (1.88mm^3/s)

M107
M104 S200 ; set temperature
G28 ; home all axes
G1 Z5 F5000 ; lift nozzle

; Filament gcode

M109 S200 ; set temperature and wait for it to be reached
G21 ; set units to millimeters
G90 ; use absolute coordinates
M82 ; use absolute distances for extrusion
G92 E0
G1 Z0.350 F7800.000
G1 E-2.00000 F2400.00000
G92 E0
G1 X72.869 Y52.223 F7800.000
G1 E2.00000 F2400.00000
G1 F1800
G1 X74.772 Y50.944 E2.20854
G1 X77.459 Y50.375 E2.45828
G1 X122.541 Y50.375 E6.55754
G1 X124.800 Y50.772 E6.76608
G1 X126.788 Y51.915 E6.97462
G1 X128.267 Y53.668 E7.18317
G1 X129.126 Y56.277 E7.43290
G1 X132.585 Y87.777 E10.31441
G1 X132.625 Y88.500 E10.38026
G1 X132.625 Y111.500 E12.47164
G1 X132.228 Y113.759 E12.68019
G1 X131.085 Y115.747 E12.88873
G1 X129.332 Y117.226 E13.09727
G1 X126.782 Y118.079 E13.34174
G1 X123.282 Y118.495 E13.66224
G1 X122.500 Y118.541 E13.73347
G1 X77.500 Y118.541 E17.82530
G1 X76.718 Y118.495 E17.89653
G1 X73.218 Y118.079 E18.21702
G1 X71.022 Y117.418 E18.42556
G1 X69.183 Y116.048 E18.63411
G1 X67.921 Y114.133 E18.84265
G1 X67.375 Y111.500 E19.08712
G1 X67.375 Y88.500 E21.17850
G1 X67.415 Y87.777 E21.24435
G1 X70.874 Y56.277 E24.12586
G1 X71.515 Y54.075 E24.33440
G1 X72.833 Y52.272 E24.53749
G1 E22.53749 F2400.00000
G92 E0
G1 X87.009 Y101.609 F7800.000
G1 E2.00000 F2400.00000
G1 F1800
G1 X79.790 Y101.609 E2.65642
G1 X79.790 Y87.489 E3.94040
G1 X87.009 Y87.489 E4.59682
G1 X87.009 Y101.549 E5.87534
G1 X86.385 Y100.985 F7800.000
G1 F1800
G1 X80.415 Y100.985 E6.41812
G1 X80.415 Y88.114 E7.58845
G1 X86.385 Y88.114 E8.13123
G1 X86.385 Y100.925 E9.29611
G1 X86.442 Y101.380 F7800.000
G1 E7.29611 F2400.00000
G92 E0
G1 X87.009 Y76.290 F7800.000
G1 E2.00000 F2400.00000
G1 F1800
G1 X79.790 Y76.290 E2.65642
G1 X79.790 Y62.169 E3.94040
G1 X87.009 Y62.169 E4.59682
G1 X87.009 Y76.230 E5.87534
G1 X86.385 Y75.665 F7800.000
G1 F1800
G1 X80.415 Y75.665 E6.41812
G1 X80.415 Y62.794 E7.58845
G1 X86.385 Y62.794 E8.13123
G1 X86.385 Y75.605 E9.29611
G1 X86.442 Y76.061 F7800.000
G1 E7.29611 F2400.00000
G92 E0
G1 X98.400 Y79.400 F7800.000
G1 E2.00000 F2400.00000
G1 F1800
G1 X110.600 Y79.400 E3.10930
G1 X110.600 Y87.600 E3.85488
G1 X98.400 Y87.600 E4.96418
G1 X98.400 Y79.460 E5.70431
G1 X99.025 Y80.025 F7800.000
G1 F1800
G1 X109.975 Y80.025 E6.69997
G1 X109.975 Y86.975 E7.33191
G1 X99.025 Y86.975 E8.32757
G1 X99.025 Y80.085 E8.95405
G1 X99.650 Y80.650 F7800.000
G1 F1800
G1 X109.350 Y80.650 E9.83607
G1 X109.350 Y86.350 E10.35437
G1 X99.650 Y86.350 E11.23638
G1 X99.650 Y80.710 E11.74922
G1 X99.514 Y80.274 F7800.000
G1 E9.74922 F2400.00000
G92 E0
G1 X103.900 Y75.600 F7800.000
G1 E2.00000 F2400.00000
G1 F1800
G1 X103.900 Y69.400 E2.56372
G1 X110.100 Y69.400 E3.12745
G1 X110.100 Y75.600 E3.69117
G1 X103.960 Y75.600 E4.24944
G1 X104.525 Y74.975 F7800.000
G1 F1800
G1 X104.525 Y70.025 E4.69952
G1 X109.475 Y70.025 E5.14960
G1 X109.475 Y74.975 E5.59968
G1 X104.585 Y74.975 E6.04430
G1 X105.150 Y74.350 F7800.000
G1 F1800
G1 X105.150 Y70.650 E6.38074
G1 X108.850 Y70.650 E6.71718
G1 X108.850 Y74.350 E7.05362
G1 X105.210 Y74.350 E7.38461
G1 X104.764 Y74.453 F7800.000
G1 E5.38461 F2400.00000
G92 E0
G1 X87.634 Y76.915 F7800.000
G1 E2.00000 F2400.00000
G1 F1800
G1 X87.634 Y61.544 E3.39762
G1 X79.059 Y61.544 E4.17737
G1 X79.059 Y58.600 E4.44513
G1 X120.941 Y58.600 E8.25346
G1 X120.941 Y90.100 E11.11774
G1 X124.400 Y90.100 E11.43228
G1 X124.400 Y109.900 E13.23273
G1 X120.900 Y109.900 E13.55098
G1 X120.900 Y110.316 E13.58881
G1 X79.100 Y110.316 E17.38971
G1 X79.100 Y109.900 E17.42754
G1 X75.600 Y109.900 E17.74579
G1 X75.600 Y90.100 E19.54624
G1 X79.166 Y90.100 E19.87047
G1 X79.166 Y102.234 E20.97386
G1 X87.634 Y102.234 E21.74392
G1 X87.634 Y86.864 E23.14154
G1 X79.059 Y86.864 E23.92129
G1 X79.059 Y76.915 E24.82597
G1 X87.574 Y76.915 E25.60026
G1 E23.60026 F2400.00000
G92 E0
G1 X78.434 Y89.475 F7800.000
G1 E2.00000 F2400.00000
G1 F1800
G1 X78.434 Y57.975 E4.86429
G1 X121.566 Y57.975 E8.78625
G1 X121.566 Y89.475 E11.65054
G1 X125.025 Y89.475 E11.96508
G1 X125.025 Y110.525 E13.87917
G1 X121.525 Y110.525 E14.19742
G1 X121.525 Y110.941 E14.23525
G1 X78.475 Y110.941 E18.14979
G1 X78.475 Y110.525 E18.18762
G1 X74.975 Y110.525 E18.50587
G1 X74.975 Y89.475 E20.41996
G1 X78.374 Y89.475 E20.72904
G1 X77.809 Y88.850 F7800.000
G1 F1800
G1 X77.809 Y57.350 E23.59333
G1 X122.191 Y57.350 E27.62894
G1 X122.191 Y88.850 E30.49322
G1 X125.650 Y88.850 E30.80776
G1 X125.650 Y111.150 E32.83549
G1 X122.150 Y111.150 E33.15375
G1 X122.150 Y111.566 E33.19158
G1 X77.850 Y111.566 E37.21976
G1 X77.850 Y111.150 E37.25759
G1 X74.350 Y111.150 E37.57584
G1 X74.350 Y88.850 E39.60357
G1 X77.749 Y88.850 E39.91266
G1 X78.165 Y88.668 F7800.000
G1 X79.112 Y89.787 F7800.000
G1 F1800
G1 X79.112 Y87.176 E40.16201
G1 E38.16201 F2400.00000
G92 E0
G1 X79.112 Y76.602 F7800.000
G1 E2.00000 F2400.00000
G1 F1800
G1 X79.112 Y61.857 E3.40828
G1 E1.40828 F2400.00000
G92 E0
G1 X79.927 Y58.982 F7800.000
G1 E2.00000 F2400.00000
G1 F1800
G1 X79.441 Y59.468 E2.06284
G1 X79.441 Y60.356 E2.14400
G1 X80.815 Y58.982 E2.32162
G1 X81.703 Y58.982 E2.40278
G1 X79.522 Y61.163 E2.68464
G1 X80.410 Y61.163 E2.76580
G1 X82.591 Y58.982 E3.04767
G1 X83.480 Y58.982 E3.12883
G1 X81.299 Y61.163 E3.41070
G1 X82.187 Y61.163 E3.49186
G1 X84.368 Y58.982 E3.77373
G1 X85.256 Y58.982 E3.85489
G1 X83.075 Y61.163 E4.13676
G1 X83.963 Y61.163 E4.21792
G1 X86.144 Y58.982 E4.49978
G1 X87.032 Y58.982 E4.58094
G1 X84.851 Y61.163 E4.86281
G1 X85.739 Y61.163 E4.94397
G1 X87.920 Y58.982 E5.22584
G1 X88.808 Y58.982 E5.30700
G1 X86.627 Y61.163 E5.58887
G1 X87.515 Y61.163 E5.67003
G1 X89.696 Y58.982 E5.95189
G1 X90.585 Y58.982 E6.03305
G1 X88.016 Y61.550 E6.36499
G1 X88.016 Y62.438 E6.44615
G1 X91.473 Y58.982 E6.89286
G1 X92.361 Y58.982 E6.97402
G1 X88.016 Y63.326 E7.53551
G1 X88.016 Y64.214 E7.61667
G1 X93.249 Y58.982 E8.29294
G1 X94.137 Y58.982 E8.37410
G1 X88.016 Y65.103 E9.16515
G1 X88.016 Y65.991 E9.24631
G1 X95.025 Y58.982 E10.15213
G1 X95.913 Y58.982 E10.23329
G1 X88.016 Y66.879 E11.25389
G1 X88.016 Y67.767 E11.33505
G1 X96.802 Y58.982 E12.47043
G1 X97.690 Y58.982 E12.55159
G1 X88.016 Y68.655 E13.80174
G1 X88.016 Y69.543 E13.88290
G1 X98.578 Y58.982 E15.24784
G1 X99.466 Y58.982 E15.32900
G1 X88.016 Y70.431 E16.80871
G1 X88.016 Y71.319 E16.88987
G1 X100.354 Y58.982 E18.48436
G1 X101.242 Y58.982 E18.56552
G1 X88.016 Y72.208 E20.27478
G1 X88.016 Y73.096 E20.35594
G1 X102.130 Y58.982 E22.17999
G1 X103.018 Y58.982 E22.26115
G1 X88.016 Y73.984 E24.19997
G1 X88.016 Y74.872 E24.28113
G1 X103.907 Y58.982 E26.33472
G1 X104.795 Y58.982 E26.41588
G1 X88.016 Y75.760 E28.58426
G1 X88.016 Y76.648 E28.66542
G1 X105.683 Y58.982 E30.94857
G1 X106.571 Y58.982 E31.02973
G1 X88.016 Y77.536 E33.42766
G1 E31.42766 F2400.00000
G92 E0
G1 X79.777 Y77.783 F7800.000
G1 E2.00000 F2400.00000
G1 F1800
G1 X79.441 Y77.783 E2.03070
G1 X79.441 Y78.119 E2.06139
G1 X80.263 Y77.297 E2.16761
G1 X81.151 Y77.297 E2.24877
G1 X79.441 Y79.007 E2.46978
G1 X79.441 Y79.895 E2.55094
G1 X82.039 Y77.297 E2.88672
G1 X82.927 Y77.297 E2.96788
G1 X79.441 Y80.783 E3.41843
G1 X79.441 Y81.671 E3.49959
G1 X83.815 Y77.297 E4.06493
G1 X84.703 Y77.297 E4.14609
G1 X79.441 Y82.559 E4.82620
G1 X79.441 Y83.447 E4.90736
G1 X85.592 Y77.297 E5.70225
G1 X86.480 Y77.297 E5.78341
G1 X79.441 Y84.335 E6.69307
G1 X79.441 Y85.224 E6.77423
G1 X87.368 Y77.297 E7.79868
G1 X88.256 Y77.297 E7.87984
G1 X79.441 Y86.112 E9.01906
G1 X79.441 Y86.482 E9.05290
G1 X79.959 Y86.482 E9.10022
G1 X107.459 Y58.982 E12.65425
G1 X108.347 Y58.982 E12.73541
G1 X80.847 Y86.482 E16.28944
G1 X81.735 Y86.482 E16.37060
G1 X109.235 Y58.982 E19.92463
G1 X110.124 Y58.982 E20.00579
G1 X82.623 Y86.482 E23.55982
G1 X83.511 Y86.482 E23.64098
G1 X111.012 Y58.982 E27.19500
G1 X111.900 Y58.982 E27.27616
G1 X84.399 Y86.482 E30.83019
G1 X85.287 Y86.482 E30.91135
G1 X112.788 Y58.982 E34.46538
G1 X113.676 Y58.982 E34.54654
G1 X103.639 Y69.018 E35.84364
G1 X104.527 Y69.018 E35.92480
G1 X114.564 Y58.982 E37.22190
G1 X115.452 Y58.982 E37.30306
G1 X105.416 Y69.018 E38.60016
G1 X106.304 Y69.018 E38.68132
G1 X116.340 Y58.982 E39.97842
G1 X117.229 Y58.982 E40.05958
G1 X107.192 Y69.018 E41.35668
G1 X108.080 Y69.018 E41.43784
G1 X118.117 Y58.982 E42.73494
G1 X119.005 Y58.982 E42.81610
G1 X108.968 Y69.018 E44.11320
G1 X109.856 Y69.018 E44.19436
G1 X119.893 Y58.982 E45.49145
G1 X120.559 Y58.982 E45.55234
G1 X120.559 Y59.203 E45.57261
G1 X110.482 Y69.281 E46.87499
G1 X110.482 Y70.169 E46.95615
G1 X120.559 Y60.092 E48.25852
G1 X120.559 Y60.980 E48.33968
G1 X110.482 Y71.057 E49.64206
G1 X110.482 Y71.945 E49.72322
G1 X120.559 Y61.868 E51.02559
G1 X120.559 Y62.756 E51.10675
G1 X110.482 Y72.834 E52.40913
G1 X110.482 Y73.722 E52.49029
G1 X120.559 Y63.644 E53.79266
G1 X120.559 Y64.532 E53.87382
G1 X110.482 Y74.610 E55.17620
G1 X110.482 Y75.498 E55.25736
G1 X120.559 Y65.420 E56.55973
G1 X120.559 Y66.309 E56.64089
G1 X110.482 Y76.386 E57.94327
G1 E55.94327 F2400.00000
G92 E0
G1 X103.518 Y69.139 F7800.000
G1 E2.00000 F2400.00000
G1 F1800
G1 X86.175 Y86.482 E4.24131
G1 X87.064 Y86.482 E4.32247
G1 X103.518 Y70.027 E6.44899
G1 X103.518 Y70.915 E6.53015
G1 X87.952 Y86.482 E8.54190
G1 X88.016 Y86.482 E8.54779
G1 X88.016 Y87.306 E8.62306
G1 X103.518 Y71.804 E10.62649
G1 X103.518 Y72.692 E10.70765
G1 X88.016 Y88.194 E12.71108
G1 X88.016 Y89.082 E12.79224
G1 X97.532 Y79.566 E14.02206
G1 X97.532 Y79.018 E14.07210
G1 X98.080 Y79.018 E14.12214
G1 X103.518 Y73.580 E14.82498
G1 X103.518 Y74.468 E14.90614
G1 X98.968 Y79.018 E15.49420
G1 X99.856 Y79.018 E15.57536
G1 X103.518 Y75.356 E16.04865
G1 X103.518 Y75.982 E16.10580
G1 X103.781 Y75.982 E16.12981
G1 X100.744 Y79.018 E16.52226
G1 X101.632 Y79.018 E16.60342
G1 X104.669 Y75.982 E16.99588
G1 X105.557 Y75.982 E17.07704
G1 X102.521 Y79.018 E17.46950
G1 X103.409 Y79.018 E17.55066
G1 X106.445 Y75.982 E17.94311
G1 X107.334 Y75.982 E18.02427
G1 X104.297 Y79.018 E18.41673
G1 X105.185 Y79.018 E18.49789
G1 X108.222 Y75.982 E18.89035
G1 X109.110 Y75.982 E18.97151
G1 X106.073 Y79.018 E19.36396
G1 X106.961 Y79.018 E19.44512
G1 X109.998 Y75.982 E19.83758
G1 X110.886 Y75.982 E19.91874
G1 X107.849 Y79.018 E20.31120
G1 X108.737 Y79.018 E20.39236
G1 X120.559 Y67.197 E21.92013
G1 X120.559 Y68.085 E22.00129
G1 X109.626 Y79.018 E23.41429
G1 X110.514 Y79.018 E23.49545
G1 X120.559 Y68.973 E24.79367
G1 X120.559 Y69.861 E24.87483
G1 X110.982 Y79.439 E26.11259
G1 X110.982 Y80.327 E26.19375
G1 X120.559 Y70.749 E27.43151
G1 X120.559 Y71.637 E27.51267
G1 X110.982 Y81.215 E28.75043
G1 X110.982 Y82.103 E28.83159
G1 X120.559 Y72.525 E30.06934
G1 X120.559 Y73.414 E30.15050
G1 X110.982 Y82.991 E31.38826
G1 X110.982 Y83.879 E31.46942
G1 X120.559 Y74.302 E32.70718
G1 X120.559 Y75.190 E32.78834
G1 X110.982 Y84.767 E34.02610
G1 X110.982 Y85.656 E34.10726
G1 X120.559 Y76.078 E35.34501
G1 X120.559 Y76.966 E35.42617
G1 X110.982 Y86.544 E36.66393
G1 X110.982 Y87.432 E36.74509
G1 X120.559 Y77.854 E37.98285
G1 X120.559 Y78.742 E38.06401
G1 X110.982 Y88.320 E39.30177
G1 E37.30177 F2400.00000
G92 E0
G1 X98.018 Y79.080 F7800.000
G1 E2.00000 F2400.00000
G1 F1800
G1 X98.018 Y79.968 E2.08116
G1 X88.016 Y89.970 E3.37380
G1 X88.016 Y90.858 E3.45496
G1 X98.018 Y80.856 E4.74759
G1 X98.018 Y81.744 E4.82875
G1 X88.016 Y91.747 E6.12139
G1 X88.016 Y92.635 E6.20255
G1 X98.018 Y82.632 E7.49519
G1 X98.018 Y83.521 E7.57635
G1 X88.016 Y93.523 E8.86898
G1 X88.016 Y94.411 E8.95014
G1 X98.018 Y84.409 E10.24278
G1 X98.018 Y85.297 E10.32394
G1 X88.016 Y95.299 E11.61658
G1 X88.016 Y96.187 E11.69774
G1 X98.018 Y86.185 E12.99037
G1 X98.018 Y87.073 E13.07153
G1 X88.016 Y97.075 E14.36417
G1 X88.016 Y97.963 E14.44533
G1 X98.018 Y87.961 E15.73797
G1 X98.018 Y87.982 E15.73983
G1 X98.886 Y87.982 E15.81913
G1 X88.016 Y98.852 E17.22391
G1 X88.016 Y99.740 E17.30507
G1 X99.774 Y87.982 E18.82462
G1 X100.662 Y87.982 E18.90578
G1 X88.016 Y100.628 E20.54012
G1 X88.016 Y101.516 E20.62128
G1 X101.551 Y87.982 E22.37039
G1 X102.439 Y87.982 E22.45155
G1 X88.016 Y102.404 E24.31544
G1 E22.31544 F2400.00000
G92 E0
G1 X76.847 Y90.482 F7800.000
G1 E2.00000 F2400.00000
G1 F1800
G1 X75.982 Y91.347 E2.11186
G1 X75.982 Y92.235 E2.19302
G1 X77.735 Y90.482 E2.41966
G1 X78.623 Y90.482 E2.50082
G1 X75.982 Y93.123 E2.84224
G1 X75.982 Y94.012 E2.92340
G1 X78.784 Y91.210 E3.28552
G1 X78.784 Y92.098 E3.36668
G1 X75.982 Y94.900 E3.72880
G1 X75.982 Y95.788 E3.80996
G1 X78.784 Y92.986 E4.17208
G1 X78.784 Y93.874 E4.25324
G1 X75.982 Y96.676 E4.61536
G1 X75.982 Y97.564 E4.69652
G1 X78.784 Y94.762 E5.05864
G1 X78.784 Y95.650 E5.13980
G1 X75.982 Y98.452 E5.50192
G1 X75.982 Y99.340 E5.58308
G1 X78.784 Y96.538 E5.94520
G1 X78.784 Y97.426 E6.02636
G1 X75.982 Y100.229 E6.38849
G1 X75.982 Y101.117 E6.46965
G1 X78.784 Y98.315 E6.83177
G1 X78.784 Y99.203 E6.91293
G1 X75.982 Y102.005 E7.27505
G1 X75.982 Y102.893 E7.35621
G1 X78.784 Y100.091 E7.71833
G1 X78.784 Y100.979 E7.79949
G1 X75.982 Y103.781 E8.16161
G1 X75.982 Y104.669 E8.24277
G1 X78.784 Y101.867 E8.60489
G1 X78.784 Y102.616 E8.67334
G1 X78.923 Y102.616 E8.68605
G1 X75.982 Y105.557 E9.06615
G1 X75.982 Y106.445 E9.14731
G1 X79.811 Y102.616 E9.64219
G1 X80.699 Y102.616 E9.72335
G1 X75.982 Y107.334 E10.33300
G1 X75.982 Y108.222 E10.41416
G1 X81.587 Y102.616 E11.13860
G1 X82.475 Y102.616 E11.21976
G1 X75.982 Y109.110 E12.05897
G1 X75.982 Y109.518 E12.09630
G1 X76.461 Y109.518 E12.14013
G1 X83.363 Y102.616 E13.03214
G1 X84.252 Y102.616 E13.11330
G1 X77.349 Y109.518 E14.00531
G1 X78.237 Y109.518 E14.08647
G1 X85.140 Y102.616 E14.97848
G1 X86.028 Y102.616 E15.05964
G1 X79.126 Y109.518 E15.95165
G1 X79.482 Y109.518 E15.98418
G1 X79.482 Y109.934 E16.02220
G1 X79.598 Y109.934 E16.03281
G1 X86.916 Y102.616 E16.97858
G1 X87.804 Y102.616 E17.05974
G1 X80.486 Y109.934 E18.00552
G1 X81.374 Y109.934 E18.08668
G1 X103.327 Y87.982 E20.92375
G1 X104.215 Y87.982 E21.00491
G1 X82.262 Y109.934 E23.84198
G1 X83.150 Y109.934 E23.92314
G1 X105.103 Y87.982 E26.76021
G1 X105.991 Y87.982 E26.84137
G1 X84.038 Y109.934 E29.67844
G1 X84.926 Y109.934 E29.75960
G1 X106.879 Y87.982 E32.59667
G1 X107.767 Y87.982 E32.67783
G1 X85.815 Y109.934 E35.51490
G1 X86.703 Y109.934 E35.59606
G1 X108.656 Y87.982 E38.43313
G1 X109.544 Y87.982 E38.51429
G1 X87.591 Y109.934 E41.35136
G1 X88.479 Y109.934 E41.43252
G1 X110.432 Y87.982 E44.26959
G1 X111.320 Y87.982 E44.35075
G1 X89.367 Y109.934 E47.18782
G1 X90.255 Y109.934 E47.26898
G1 X120.559 Y79.630 E51.18530
G1 X120.559 Y80.519 E51.26646
G1 X91.143 Y109.934 E55.06801
G1 X92.032 Y109.934 E55.14917
G1 X120.559 Y81.407 E58.83593
G1 X120.559 Y82.295 E58.91709
G1 X92.920 Y109.934 E62.48908
G1 X93.808 Y109.934 E62.57024
G1 X120.559 Y83.183 E66.02746
G1 X120.559 Y84.071 E66.10862
G1 X94.696 Y109.934 E69.45105
G1 X95.584 Y109.934 E69.53221
G1 X120.559 Y84.959 E72.75987
G1 X120.559 Y85.847 E72.84103
G1 X96.472 Y109.934 E75.95391
G1 X97.360 Y109.934 E76.03507
G1 X120.559 Y86.736 E79.03317
G1 X120.559 Y87.624 E79.11433
G1 X98.248 Y109.934 E81.99766
G1 X99.137 Y109.934 E82.07882
G1 X120.559 Y88.512 E84.84737
G1 X120.559 Y89.400 E84.92853
G1 X100.025 Y109.934 E87.58230
G1 X100.913 Y109.934 E87.66346
G1 X120.559 Y90.288 E90.20245
G1 X120.559 Y90.482 E90.22014
G1 X121.254 Y90.482 E90.28361
G1 X101.801 Y109.934 E92.79759
G1 X102.689 Y109.934 E92.87875
G1 X122.142 Y90.482 E95.39273
G1 X123.030 Y90.482 E95.47389
G1 X103.577 Y109.934 E97.98787
G1 X104.465 Y109.934 E98.06903
G1 X123.918 Y90.482 E100.58301
G1 X124.018 Y90.482 E100.59216
G1 X124.018 Y91.270 E100.66417
G1 X105.354 Y109.934 E103.07632
G1 X106.242 Y109.934 E103.15748
G1 X124.018 Y92.158 E105.45485
G1 X124.018 Y93.046 E105.53601
G1 X107.130 Y109.934 E107.71860
G1 X108.018 Y109.934 E107.79976
G1 X124.018 Y93.934 E109.86758
G1 X124.018 Y94.822 E109.94874
G1 X108.906 Y109.934 E111.90178
G1 X109.794 Y109.934 E111.98294
