; generated by Slic3r 1.3.0-dev on 2018-09-26 at 21:41:16

; external perimeters extrusion width = 0.44mm (3.38mm^3/s)
; perimeters extrusion width = 0.48mm (7.54mm^3/s)
; infill extrusion width = 0.48mm (10.05mm^3/s)
; solid infill extrusion width = 0.48mm (2.51mm^3/s)
; top infill extrusion width = 0.48mm (1.88mm^3/s)

M107
M104 S200 ; set temperature
G28 ; home all axes
G1 Z5 F5000 ; lift nozzle

; Filament gcode

M109 S200 ; set temperature and wait for it to be reached
G21 ; set units to millimeters
G90 ; use absolute coordinates
M82 ; use absolute distances for extrusion
G92 E0
G1 Z0.350 F7800.000
G1 E-2.00000 F2400.00000
G92 E0
G1 X54.920 Y51.778 F7800.000
G1 E2.00000 F2400.00000
G1 F1800
G1 X56.673 Y50.299 E2.20854
G1 X58.825 Y49.506 E2.41708
G1 X60.005 Y49.400 E2.52479
G1 X139.995 Y49.400 E9.79826
G1 X142.254 Y49.797 E10.00681
G1 X144.242 Y50.941 E10.21535
G1 X145.721 Y52.693 E10.42389
G1 X146.514 Y54.845 E10.63243
G1 X146.620 Y56.025 E10.74013
G1 X146.620 Y142.025 E18.56011
G1 X146.223 Y144.284 E18.76865
G1 X145.079 Y146.272 E18.97719
G1 X143.327 Y147.751 E19.18573
G1 X141.175 Y148.544 E19.39428
G1 X139.995 Y148.650 E19.50198
G1 X60.005 Y148.650 E26.77544
G1 X57.746 Y148.253 E26.98398
G1 X55.758 Y147.110 E27.19253
G1 X54.279 Y145.357 E27.40107
G1 X53.486 Y143.205 E27.60961
G1 X53.380 Y142.025 E27.71732
G1 X53.380 Y56.025 E35.53728
G1 X53.777 Y53.766 E35.74582
G1 X54.890 Y51.830 E35.94891
G1 E33.94891 F2400.00000
G92 E0
G1 X131.321 Y127.389 F7800.000
G1 E2.00000 F2400.00000
G1 F1800
G1 X131.371 Y127.351 E2.00573
G1 X132.568 Y126.846 E2.12388
G1 X133.855 Y126.668 E2.24204
G1 X135.144 Y126.830 E2.36019
G1 X136.348 Y127.319 E2.47834
G1 X137.384 Y128.104 E2.59650
G1 X138.181 Y129.130 E2.71466
G1 X138.686 Y130.327 E2.83282
G1 X138.864 Y131.614 E2.95099
G1 X138.703 Y132.904 E3.06915
G1 X138.213 Y134.108 E3.18731
G1 X137.428 Y135.144 E3.30547
G1 X136.403 Y135.941 E3.42363
G1 X135.205 Y136.446 E3.54179
G1 X133.918 Y136.624 E3.65994
G1 X132.629 Y136.462 E3.77809
G1 X131.425 Y135.973 E3.89624
G1 X130.389 Y135.188 E4.01440
G1 X129.592 Y134.162 E4.13256
G1 X129.087 Y132.965 E4.25072
G1 X128.909 Y131.678 E4.36889
G1 X129.071 Y130.388 E4.48705
G1 X129.560 Y129.184 E4.60521
G1 X130.345 Y128.148 E4.72337
G1 X131.273 Y127.426 E4.83034
G1 X131.309 Y127.327 F7800.000
G1 E2.83034 F2400.00000
G92 E0
G1 X102.907 Y98.981 F7800.000
G1 E2.00000 F2400.00000
G1 F1800
G1 X102.356 Y99.433 E2.06483
G1 X101.727 Y99.769 E2.12965
G1 X101.045 Y99.976 E2.19448
G1 X100.335 Y100.046 E2.25930
G1 X99.626 Y99.976 E2.32413
G1 X98.943 Y99.769 E2.38896
G1 X98.315 Y99.433 E2.45378
G1 X97.764 Y98.981 E2.51860
G1 X97.311 Y98.430 E2.58343
G1 X96.975 Y97.801 E2.64826
G1 X96.768 Y97.119 E2.71308
G1 X96.698 Y96.410 E2.77791
G1 X96.768 Y95.700 E2.84273
G1 X96.975 Y95.018 E2.90755
G1 X97.311 Y94.389 E2.97238
G1 X97.764 Y93.838 E3.03721
G1 X98.315 Y93.386 E3.10203
G1 X98.958 Y93.042 E3.16836
G1 X99.688 Y92.837 E3.23732
G1 X100.335 Y92.773 E3.29644
G1 X101.045 Y92.843 E3.36127
G1 X101.727 Y93.050 E3.42609
G1 X102.355 Y93.386 E3.49092
G1 X102.907 Y93.838 E3.55575
G1 X103.359 Y94.389 E3.62057
G1 X103.695 Y95.018 E3.68540
G1 X103.902 Y95.700 E3.75022
G1 X103.972 Y96.410 E3.81505
G1 X103.902 Y97.119 E3.87987
G1 X103.695 Y97.801 E3.94470
G1 X103.359 Y98.430 E4.00952
G1 X102.945 Y98.935 E4.06889
G1 X102.463 Y98.537 F7800.000
G1 F1800
G1 X102.007 Y98.911 E4.12253
G1 X101.486 Y99.189 E4.17616
G1 X100.922 Y99.361 E4.22979
G1 X100.335 Y99.418 E4.28342
G1 X99.748 Y99.361 E4.33706
G1 X99.184 Y99.189 E4.39069
G1 X98.663 Y98.911 E4.44432
G1 X98.208 Y98.537 E4.49795
G1 X97.833 Y98.081 E4.55159
G1 X97.555 Y97.561 E4.60522
G1 X97.384 Y96.997 E4.65885
G1 X97.326 Y96.410 E4.71249
G1 X97.384 Y95.823 E4.76612
G1 X97.555 Y95.258 E4.81975
G1 X97.833 Y94.738 E4.87338
G1 X98.208 Y94.282 E4.92702
G1 X98.663 Y93.908 E4.98065
G1 X99.192 Y93.625 E5.03519
G1 X99.804 Y93.453 E5.09296
G1 X100.335 Y93.401 E5.14148
G1 X100.922 Y93.459 E5.19511
G1 X101.486 Y93.630 E5.24874
G1 X102.007 Y93.908 E5.30238
G1 X102.463 Y94.282 E5.35601
G1 X102.837 Y94.738 E5.40964
G1 X103.115 Y95.258 E5.46327
G1 X103.286 Y95.823 E5.51691
G1 X103.344 Y96.410 E5.57054
G1 X103.286 Y96.997 E5.62417
G1 X103.115 Y97.561 E5.67781
G1 X102.837 Y98.081 E5.73144
G1 X102.501 Y98.491 E5.77961
G1 X102.019 Y98.093 F7800.000
G1 F1800
G1 X101.658 Y98.389 E5.82205
G1 X101.246 Y98.609 E5.86449
G1 X100.800 Y98.745 E5.90693
G1 X100.335 Y98.790 E5.94937
G1 X99.871 Y98.745 E5.99181
G1 X99.424 Y98.609 E6.03425
G1 X99.012 Y98.389 E6.07669
G1 X98.652 Y98.093 E6.11913
G1 X98.355 Y97.732 E6.16157
G1 X98.135 Y97.321 E6.20401
G1 X98.000 Y96.874 E6.24645
G1 X97.954 Y96.410 E6.28889
G1 X98.000 Y95.945 E6.33133
G1 X98.135 Y95.498 E6.37377
G1 X98.355 Y95.087 E6.41621
G1 X98.652 Y94.726 E6.45865
G1 X99.012 Y94.430 E6.50109
G1 X99.427 Y94.208 E6.54386
G1 X99.920 Y94.070 E6.59043
G1 X100.335 Y94.029 E6.62834
G1 X100.800 Y94.074 E6.67078
G1 X101.246 Y94.210 E6.71322
G1 X101.658 Y94.430 E6.75566
G1 X102.019 Y94.726 E6.79810
G1 X102.315 Y95.087 E6.84054
G1 X102.535 Y95.498 E6.88298
G1 X102.670 Y95.945 E6.92542
G1 X102.716 Y96.410 E6.96786
G1 X102.670 Y96.874 E7.01030
G1 X102.535 Y97.321 E7.05274
G1 X102.315 Y97.732 E7.09518
G1 X102.057 Y98.047 E7.13217
G1 X102.019 Y98.093 F7800.000
G1 E5.13217 F2400.00000
G92 E0
G1 X124.397 Y85.925 F7800.000
G1 E2.00000 F2400.00000
G1 F1800
G1 X124.397 Y112.125 E4.38234
G1 X138.395 Y112.125 E5.65520
G1 X138.395 Y127.302 E7.03523
G1 X136.971 Y126.224 E7.19765
G1 X135.463 Y125.610 E7.34572
G1 X133.847 Y125.408 E7.49380
G1 X132.234 Y125.630 E7.64188
G1 X130.733 Y126.263 E7.78996
G1 X129.448 Y127.263 E7.93804
G1 X128.465 Y128.561 E8.08612
G1 X127.851 Y130.070 E8.23421
G1 X127.649 Y131.686 E8.38229
G1 X127.871 Y133.299 E8.53037
G1 X128.504 Y134.799 E8.67846
G1 X129.504 Y136.085 E8.82654
G1 X130.276 Y136.670 E8.91461
G1 X130.190 Y136.926 E8.93912
G1 X128.147 Y136.926 E9.12494
G1 X128.147 Y140.425 E9.44319
G1 X71.853 Y140.425 E14.56190
G1 X71.853 Y136.926 E14.88015
G1 X69.810 Y136.926 E15.06596
G1 X69.724 Y136.670 E15.09047
G1 X70.496 Y136.085 E15.17855
G1 X71.496 Y134.799 E15.32663
G1 X72.128 Y133.299 E15.47471
G1 X72.351 Y131.686 E15.62279
G1 X72.149 Y130.070 E15.77088
G1 X71.535 Y128.561 E15.91896
G1 X70.552 Y127.263 E16.06704
G1 X69.267 Y126.263 E16.21512
G1 X67.766 Y125.630 E16.36320
G1 X66.153 Y125.408 E16.51127
G1 X64.537 Y125.610 E16.65936
G1 X63.029 Y126.224 E16.80743
G1 X61.605 Y127.302 E16.96984
G1 X61.605 Y112.125 E18.34987
G1 X75.603 Y112.125 E19.62273
G1 X75.603 Y85.925 E22.00507
G1 X61.605 Y85.925 E23.27792
G1 X61.605 Y70.748 E24.65795
G1 X63.029 Y71.827 E24.82036
G1 X64.537 Y72.440 E24.96844
G1 X66.153 Y72.643 E25.11652
G1 X67.766 Y72.420 E25.26460
G1 X69.267 Y71.787 E25.41268
G1 X70.552 Y70.788 E25.56075
G1 X71.535 Y69.489 E25.70884
G1 X72.149 Y67.981 E25.85692
G1 X72.351 Y66.365 E26.00500
G1 X72.128 Y64.752 E26.15309
G1 X71.496 Y63.251 E26.30117
G1 X70.496 Y61.965 E26.44925
G1 X69.724 Y61.380 E26.53733
G1 X69.810 Y61.125 E26.56184
G1 X71.853 Y61.125 E26.74765
G1 X71.853 Y57.625 E27.06590
G1 X128.147 Y57.625 E32.18461
G1 X128.147 Y61.125 E32.50286
G1 X130.190 Y61.125 E32.68867
G1 X130.276 Y61.380 E32.71318
G1 X129.504 Y61.965 E32.80126
G1 X128.504 Y63.251 E32.94934
G1 X127.872 Y64.752 E33.09742
G1 X127.649 Y66.365 E33.24551
G1 X127.851 Y67.981 E33.39359
G1 X128.465 Y69.489 E33.54167
G1 X129.448 Y70.788 E33.68976
G1 X130.733 Y71.787 E33.83784
G1 X132.234 Y72.420 E33.98591
G1 X133.847 Y72.643 E34.13399
G1 X135.463 Y72.441 E34.28207
G1 X136.971 Y71.827 E34.43015
G1 X138.395 Y70.748 E34.59256
G1 X138.395 Y85.925 E35.97260
G1 X124.457 Y85.925 E37.24000
G1 X125.022 Y86.550 F7800.000
G1 F1800
G1 X125.022 Y111.500 E39.50869
G1 X139.020 Y111.500 E40.78155
G1 X139.020 Y128.778 E42.35260
G1 X138.767 Y128.865 E42.37695
G1 X137.827 Y127.655 E42.51623
G1 X136.660 Y126.771 E42.64935
G1 X135.304 Y126.220 E42.78247
G1 X133.851 Y126.038 E42.91558
G1 X132.401 Y126.238 E43.04870
G1 X131.052 Y126.807 E43.18181
G1 X129.896 Y127.706 E43.31493
G1 X129.012 Y128.873 E43.44805
G1 X128.461 Y130.229 E43.58118
G1 X128.279 Y131.682 E43.71430
G1 X128.479 Y133.132 E43.84742
G1 X129.048 Y134.481 E43.98055
G1 X129.947 Y135.637 E44.11367
G1 X131.114 Y136.521 E44.24678
G1 X132.470 Y137.072 E44.37990
G1 X133.480 Y137.199 E44.47250
G1 X133.458 Y137.550 E44.50453
G1 X128.771 Y137.550 E44.93069
G1 X128.771 Y141.050 E45.24894
G1 X71.229 Y141.050 E50.48129
G1 X71.229 Y137.550 E50.79954
G1 X66.542 Y137.550 E51.22570
G1 X66.520 Y137.199 E51.25773
G1 X67.530 Y137.072 E51.35033
G1 X68.886 Y136.521 E51.48344
G1 X70.053 Y135.637 E51.61656
G1 X70.952 Y134.481 E51.74968
G1 X71.521 Y133.132 E51.88280
G1 X71.577 Y132.726 E51.92008
G1 X71.721 Y131.682 E52.01592
G1 X71.539 Y130.229 E52.14905
G1 X70.987 Y128.873 E52.28217
G1 X70.740 Y128.546 E52.31945
G1 X70.104 Y127.706 E52.41529
G1 X68.948 Y126.807 E52.54841
G1 X67.599 Y126.238 E52.68153
G1 X66.149 Y126.038 E52.81464
G1 X64.696 Y126.220 E52.94776
G1 X63.340 Y126.771 E53.08087
G1 X62.173 Y127.655 E53.21399
G1 X61.233 Y128.865 E53.35327
G1 X60.980 Y128.778 E53.37762
G1 X60.980 Y111.500 E54.94867
G1 X74.978 Y111.500 E56.22153
G1 X74.978 Y86.550 E58.49022
G1 X60.980 Y86.550 E59.76308
G1 X60.980 Y69.273 E61.33413
G1 X61.233 Y69.186 E61.35848
G1 X62.173 Y70.395 E61.49776
G1 X63.340 Y71.279 E61.63088
G1 X64.696 Y71.831 E61.76399
G1 X66.149 Y72.013 E61.89711
G1 X67.599 Y71.812 E62.03023
G1 X68.948 Y71.243 E62.16334
G1 X70.104 Y70.345 E62.29646
G1 X70.987 Y69.178 E62.42958
G1 X71.539 Y67.821 E62.56270
G1 X71.721 Y66.369 E62.69583
G1 X71.521 Y64.919 E62.82895
G1 X70.952 Y63.570 E62.96207
G1 X70.053 Y62.414 E63.09519
G1 X68.886 Y61.530 E63.22831
G1 X67.530 Y60.978 E63.36143
G1 X66.520 Y60.852 E63.45403
G1 X66.542 Y60.500 E63.48606
G1 X71.229 Y60.500 E63.91223
G1 X71.229 Y57.000 E64.23048
G1 X128.771 Y57.000 E69.46283
G1 X128.771 Y60.500 E69.78108
G1 X133.458 Y60.500 E70.20724
G1 X133.480 Y60.852 E70.23927
G1 X132.470 Y60.978 E70.33187
G1 X131.114 Y61.530 E70.46499
G1 X129.947 Y62.414 E70.59811
G1 X129.048 Y63.570 E70.73123
G1 X128.479 Y64.919 E70.86435
G1 X128.279 Y66.369 E70.99748
G1 X128.461 Y67.821 E71.13060
G1 X129.012 Y69.178 E71.26372
G1 X129.896 Y70.345 E71.39684
G1 X131.052 Y71.243 E71.52996
G1 X132.401 Y71.812 E71.66308
G1 X133.851 Y72.013 E71.79620
G1 X135.304 Y71.831 E71.92931
G1 X136.660 Y71.279 E72.06242
G1 X137.827 Y70.395 E72.19554
G1 X138.767 Y69.186 E72.33483
G1 X139.020 Y69.273 E72.35918
G1 X139.020 Y86.550 E73.93022
G1 X125.082 Y86.550 E75.19762
G1 E73.19762 F2400.00000
G92 E0
G1 X138.395 Y135.975 F7800.000
G1 E2.00000 F2400.00000
G1 F1800
G1 X138.395 Y136.926 E2.08643
G1 X137.585 Y136.926 E2.16008
G1 X137.499 Y136.672 E2.18442
G1 X138.348 Y136.012 E2.28226
G1 X139.020 Y134.500 F7800.000
G1 F1800
G1 X139.020 Y137.550 E2.55964
G1 X134.330 Y137.550 E2.98613
G1 X134.306 Y137.201 E3.01795
G1 X135.372 Y137.054 E3.11585
G1 X136.721 Y136.485 E3.24897
G1 X137.877 Y135.586 E3.38209
G1 X138.765 Y134.414 E3.51579
G1 X138.963 Y134.481 E3.53485
G1 E1.53485 F2400.00000
G92 E0
G1 X133.855 Y71.382 F7800.000
G1 E2.00000 F2400.00000
G1 F1800
G1 X132.568 Y71.205 E2.11816
G1 X131.371 Y70.700 E2.23631
G1 X130.345 Y69.902 E2.35446
G1 X129.560 Y68.866 E2.47263
G1 X129.194 Y67.965 E2.56109
G1 X129.071 Y67.662 E2.59079
G1 X128.909 Y66.373 E2.70895
G1 X129.087 Y65.086 E2.82712
G1 X129.592 Y63.888 E2.94528
G1 X130.389 Y62.862 E3.06344
G1 X131.425 Y62.078 E3.18159
G1 X132.629 Y61.588 E3.29975
G1 X133.918 Y61.426 E3.41790
G1 X135.205 Y61.604 E3.53605
G1 X136.403 Y62.109 E3.65421
G1 X137.428 Y62.907 E3.77237
G1 X138.213 Y63.943 E3.89053
G1 X138.364 Y64.314 E3.92696
G1 X138.703 Y65.147 E4.00869
G1 X138.864 Y66.436 E4.12685
G1 X138.686 Y67.723 E4.24502
G1 X138.181 Y68.921 E4.36318
G1 X137.384 Y69.947 E4.48134
G1 X136.348 Y70.731 E4.59950
G1 X135.144 Y71.221 E4.71765
G1 X133.915 Y71.375 E4.83034
G1 X133.855 Y71.382 F7800.000
G1 E2.83034 F2400.00000
G92 E0
G1 X138.395 Y62.075 F7800.000
G1 E2.00000 F2400.00000
G1 F1800
G1 X137.499 Y61.378 E2.10329
G1 X137.585 Y61.125 E2.12764
G1 X138.395 Y61.125 E2.20128
G1 X138.395 Y62.015 E2.28226
G1 X139.020 Y63.550 F7800.000
G1 F1800
G1 X138.765 Y63.636 E2.30677
G1 X137.877 Y62.464 E2.44047
G1 X136.721 Y61.565 E2.57359
G1 X135.372 Y60.996 E2.70671
G1 X134.306 Y60.849 E2.80461
G1 X134.330 Y60.500 E2.83644
G1 X139.020 Y60.500 E3.26294
G1 X139.020 Y63.490 E3.53485
G1 E1.53485 F2400.00000
G92 E0
G1 X62.501 Y61.378 F7800.000
G1 E2.00000 F2400.00000
G1 F1800
G1 X61.605 Y62.075 E2.10329
G1 X61.605 Y61.125 E2.18973
G1 X62.415 Y61.125 E2.26337
G1 X62.482 Y61.321 E2.28226
G1 X60.980 Y60.500 F7800.000
G1 F1800
G1 X65.670 Y60.500 E2.70875
G1 X65.694 Y60.849 E2.74058
G1 X64.628 Y60.996 E2.83848
G1 X63.279 Y61.565 E2.97159
G1 X62.123 Y62.464 E3.10471
G1 X61.235 Y63.636 E3.23841
G1 X60.980 Y63.550 E3.26292
G1 X60.980 Y60.560 E3.53484
G1 E1.53484 F2400.00000
G92 E0
G1 X62.746 Y62.771 F7800.000
G1 E2.00000 F2400.00000
G1 F1800
G1 X63.597 Y62.109 E2.09808
G1 X64.795 Y61.604 E2.21623
G1 X66.082 Y61.426 E2.33438
G1 X67.371 Y61.588 E2.45254
G1 X68.575 Y62.078 E2.57069
G1 X69.611 Y62.862 E2.68885
G1 X70.408 Y63.888 E2.80701
G1 X70.913 Y65.086 E2.92517
G1 X71.091 Y66.373 E3.04333
G1 X70.929 Y67.662 E3.16150
G1 X70.440 Y68.866 E3.27966
G1 X69.655 Y69.902 E3.39782
G1 X68.629 Y70.700 E3.51598
G1 X67.432 Y71.205 E3.63413
G1 X66.145 Y71.382 E3.75228
G1 X64.856 Y71.221 E3.87044
G1 X63.652 Y70.731 E3.98859
G1 X62.616 Y69.947 E4.10675
G1 X61.819 Y68.921 E4.22491
G1 X61.314 Y67.723 E4.34307
G1 X61.136 Y66.436 E4.46123
G1 X61.297 Y65.146 E4.57940
G1 X61.787 Y63.943 E4.69756
G1 X62.572 Y62.907 E4.81572
G1 X62.698 Y62.808 E4.83034
G1 X62.662 Y62.380 F7800.000
G1 E2.83034 F2400.00000
G92 E0
G1 X66.145 Y126.668 F7800.000
G1 E2.00000 F2400.00000
G1 F1800
G1 X67.432 Y126.846 E2.11815
G1 X68.629 Y127.351 E2.23630
G1 X69.655 Y128.148 E2.35446
G1 X70.440 Y129.184 E2.47262
G1 X70.929 Y130.388 E2.59078
G1 X71.091 Y131.678 E2.70895
G1 X70.913 Y132.965 E2.82711
G1 X70.408 Y134.162 E2.94527
G1 X69.611 Y135.188 E3.06343
G1 X68.575 Y135.973 E3.18159
G1 X67.371 Y136.462 E3.29974
G1 X66.082 Y136.624 E3.41790
G1 X64.795 Y136.446 E3.53605
G1 X63.597 Y135.941 E3.65420
G1 X62.571 Y135.144 E3.77236
G1 X61.787 Y134.108 E3.89052
G1 X61.297 Y132.904 E4.00868
G1 X61.136 Y131.614 E4.12684
G1 X61.314 Y130.327 E4.24501
G1 X61.819 Y129.130 E4.36317
G1 X62.616 Y128.104 E4.48133
G1 X63.652 Y127.319 E4.59949
G1 X64.856 Y126.830 E4.71764
G1 X66.085 Y126.676 E4.83034
G1 X66.145 Y126.668 F7800.000
G1 E2.83034 F2400.00000
G92 E0
G1 X61.605 Y135.975 F7800.000
G1 E2.00000 F2400.00000
G1 F1800
G1 X62.501 Y136.672 E2.10329
G1 X62.415 Y136.926 E2.12764
G1 X61.605 Y136.926 E2.20128
G1 X61.605 Y136.035 E2.28225
G1 X60.980 Y134.500 F7800.000
G1 F1800
G1 X61.235 Y134.414 E2.30677
G1 X62.123 Y135.586 E2.44046
G1 X63.279 Y136.485 E2.57358
G1 X64.628 Y137.054 E2.70669
G1 X65.694 Y137.201 E2.80459
G1 X65.670 Y137.550 E2.83642
G1 X60.980 Y137.550 E3.26290
G1 X60.980 Y134.560 E3.53481
G1 E1.53481 F2400.00000
G92 E0
G1 X70.604 Y138.175 F7800.000
G1 E2.00000 F2400.00000
G1 F1800
G1 X60.355 Y138.175 E2.93191
G1 X60.355 Y110.875 E5.41429
G1 X74.353 Y110.875 E6.68714
G1 X74.353 Y87.175 E8.84220
G1 X60.355 Y87.175 E10.11506
G1 X60.355 Y59.875 E12.59744
G1 X70.604 Y59.875 E13.52935
G1 X70.604 Y57.675 E13.72939
G1 X60.355 Y57.675 E14.66130
G1 X60.355 Y56.375 E14.77951
G1 X139.645 Y56.375 E21.98933
G1 X139.645 Y57.675 E22.10753
G1 X129.396 Y57.675 E23.03945
G1 X129.396 Y59.875 E23.23949
G1 X139.645 Y59.875 E24.17141
G1 X139.645 Y87.175 E26.65379
G1 X125.647 Y87.175 E27.92664
G1 X125.647 Y110.875 E30.08170
G1 X139.645 Y110.875 E31.35455
G1 X139.645 Y138.175 E33.83693
G1 X129.396 Y138.175 E34.76885
G1 X129.396 Y140.375 E34.96889
G1 X139.645 Y140.375 E35.90080
G1 X139.645 Y141.675 E36.01901
G1 X60.355 Y141.675 E43.22883
G1 X60.355 Y140.375 E43.34704
G1 X70.604 Y140.375 E44.27895
G1 X70.604 Y138.235 E44.47353
G1 X70.779 Y137.816 F7800.000
G1 X69.471 Y136.897 F7800.000
G1 F1800
G1 X69.129 Y137.008 E44.49662
G1 F1800
G1 X68.878 Y137.057 E44.51095
G1 F1800
