; generated by Slic3r 1.3.0-dev on 2018-09-22 at 16:53:17

; external perimeters extrusion width = 0.44mm (3.38mm^3/s)
; perimeters extrusion width = 0.48mm (7.54mm^3/s)
; infill extrusion width = 0.48mm (10.05mm^3/s)
; solid infill extrusion width = 0.48mm (2.51mm^3/s)
; top infill extrusion width = 0.48mm (1.88mm^3/s)

M107
M104 S200 ; set temperature
G28 ; home all axes
G1 Z5 F5000 ; lift nozzle

; Filament gcode

M109 S200 ; set temperature and wait for it to be reached
G21 ; set units to millimeters
G90 ; use absolute coordinates
M82 ; use absolute distances for extrusion
G92 E0
G1 Z0.350 F7800.000
G1 E-2.00000 F2400.00000
G92 E0
G1 X54.915 Y53.503 F7800.000
G1 E2.00000 F2400.00000
G1 F1800
G1 X56.668 Y52.024 E2.20854
G1 X58.820 Y51.231 E2.41708
G1 X60.000 Y51.125 E2.52479
G1 X140.000 Y51.125 E9.79917
G1 X142.259 Y51.522 E10.00772
G1 X144.247 Y52.665 E10.21626
G1 X145.726 Y54.418 E10.42480
G1 X146.519 Y56.570 E10.63334
G1 X146.625 Y57.750 E10.74104
G1 X146.625 Y143.750 E18.56102
G1 X146.228 Y146.009 E18.76956
G1 X145.084 Y147.997 E18.97810
G1 X143.332 Y149.476 E19.18664
G1 X141.180 Y150.269 E19.39519
G1 X140.000 Y150.375 E19.50289
G1 X60.000 Y150.375 E26.77726
G1 X57.741 Y149.978 E26.98580
G1 X55.753 Y148.835 E27.19435
G1 X54.274 Y147.082 E27.40289
G1 X53.481 Y144.930 E27.61143
G1 X53.375 Y143.750 E27.71914
G1 X53.375 Y57.750 E35.53910
G1 X53.772 Y55.491 E35.74764
G1 X54.885 Y53.555 E35.95073
G1 E33.95073 F2400.00000
G92 E0
G1 X130.479 Y129.772 F7800.000
G1 E2.00000 F2400.00000
G1 F1800
G1 X131.375 Y129.076 E2.10314
G1 X132.572 Y128.571 E2.22130
G1 X133.859 Y128.393 E2.33947
G1 X135.149 Y128.554 E2.45764
G1 X136.352 Y129.044 E2.57580
G1 X137.388 Y129.829 E2.69396
G1 X138.186 Y130.854 E2.81213
G1 X138.691 Y132.052 E2.93029
G1 X138.869 Y133.339 E3.04846
G1 X138.707 Y134.629 E3.16663
G1 X138.341 Y135.529 E3.25500
G1 X138.218 Y135.832 E3.28479
G1 X137.433 Y136.868 E3.40295
G1 X136.407 Y137.666 E3.52112
G1 X135.210 Y138.171 E3.63929
G1 X133.922 Y138.349 E3.75745
G1 X132.633 Y138.187 E3.87561
G1 X131.429 Y137.698 E3.99378
G1 X130.393 Y136.913 E4.11195
G1 X129.596 Y135.887 E4.23011
G1 X129.091 Y134.690 E4.34828
G1 X128.913 Y133.402 E4.46644
G1 X129.074 Y132.113 E4.58461
G1 X129.564 Y130.909 E4.70277
G1 X130.349 Y129.873 E4.82094
G1 X130.432 Y129.809 E4.83051
G1 X130.394 Y129.381 F7800.000
G1 E2.83051 F2400.00000
G92 E0
G1 X137.503 Y138.397 F7800.000
G1 E2.00000 F2400.00000
G1 F1800
G1 X138.400 Y137.699 E2.10334
G1 X138.400 Y138.650 E2.18979
G1 X137.590 Y138.650 E2.26347
G1 X137.523 Y138.454 E2.28237
G1 X139.025 Y139.275 F7800.000
G1 F1800
G1 X134.334 Y139.275 E2.70892
G1 X134.310 Y138.926 E2.74075
G1 X135.377 Y138.779 E2.83864
G1 X136.726 Y138.210 E2.97177
G1 X137.882 Y137.311 E3.10490
G1 X138.770 Y136.139 E3.23865
G1 X139.025 Y136.224 E3.26316
G1 X139.025 Y139.215 E3.53511
G1 E1.53511 F2400.00000
G92 E0
G1 X133.859 Y73.107 F7800.000
G1 E2.00000 F2400.00000
G1 F1800
G1 X132.572 Y72.929 E2.11817
G1 X131.375 Y72.424 E2.23633
G1 X130.349 Y71.627 E2.35450
G1 X129.564 Y70.591 E2.47266
G1 X129.197 Y69.690 E2.56113
G1 X129.074 Y69.387 E2.59083
G1 X128.913 Y68.098 E2.70899
G1 X129.091 Y66.810 E2.82716
G1 X129.596 Y65.613 E2.94532
G1 X130.393 Y64.587 E3.06349
G1 X131.429 Y63.802 E3.18165
G1 X132.633 Y63.313 E3.29982
G1 X133.922 Y63.151 E3.41798
G1 X135.210 Y63.329 E3.53615
G1 X136.407 Y63.834 E3.65432
G1 X137.433 Y64.632 E3.77248
G1 X138.218 Y65.668 E3.89064
G1 X138.707 Y66.871 E4.00881
G1 X138.869 Y68.161 E4.12698
G1 X138.691 Y69.448 E4.24514
G1 X138.186 Y70.645 E4.36330
G1 X137.388 Y71.671 E4.48147
G1 X136.352 Y72.456 E4.59964
G1 X135.149 Y72.946 E4.71780
G1 X133.919 Y73.100 E4.83051
G1 X133.859 Y73.107 F7800.000
G1 E2.83051 F2400.00000
G92 E0
G1 X103.430 Y96.703 F7800.000
G1 E2.00000 F2400.00000
G1 F1800
G1 X103.775 Y97.350 E2.06669
G1 X103.988 Y98.052 E2.13339
G1 X104.060 Y98.781 E2.20008
G1 X103.988 Y99.511 E2.26678
G1 X103.775 Y100.213 E2.33348
G1 X103.430 Y100.860 E2.40017
G1 X102.964 Y101.427 E2.46686
G1 X102.397 Y101.892 E2.53356
G1 X101.751 Y102.238 E2.60025
G1 X101.049 Y102.451 E2.66695
G1 X100.319 Y102.523 E2.73364
G1 X99.589 Y102.451 E2.80034
G1 X98.887 Y102.238 E2.86703
G1 X98.240 Y101.892 E2.93373
G1 X97.673 Y101.427 E3.00043
G1 X97.208 Y100.860 E3.06712
G1 X96.862 Y100.213 E3.13381
G1 X96.649 Y99.511 E3.20051
G1 X96.576 Y98.773 E3.26802
G1 X96.650 Y98.049 E3.33413
G1 X96.862 Y97.350 E3.40060
G1 X97.208 Y96.703 E3.46730
G1 X97.673 Y96.136 E3.53400
G1 X98.240 Y95.670 E3.60069
G1 X98.901 Y95.317 E3.66888
G1 X99.653 Y95.105 E3.73992
G1 X100.319 Y95.040 E3.80071
G1 X101.049 Y95.112 E3.86740
G1 X101.751 Y95.325 E3.93410
G1 X102.397 Y95.670 E4.00079
G1 X102.964 Y96.136 E4.06748
G1 X103.392 Y96.656 E4.12872
G1 X102.908 Y97.052 F7800.000
G1 F1800
G1 X103.195 Y97.590 E4.18423
G1 X103.373 Y98.174 E4.23973
G1 X103.432 Y98.781 E4.29523
G1 X103.373 Y99.389 E4.35073
G1 X103.195 Y99.973 E4.40624
G1 X102.908 Y100.511 E4.46174
G1 X102.520 Y100.983 E4.51724
G1 X102.049 Y101.370 E4.57274
G1 X101.510 Y101.658 E4.62824
G1 X100.926 Y101.835 E4.68375
G1 X100.319 Y101.895 E4.73925
G1 X99.711 Y101.835 E4.79475
G1 X99.127 Y101.658 E4.85025
G1 X98.589 Y101.370 E4.90576
G1 X98.117 Y100.983 E4.96126
G1 X97.730 Y100.511 E5.01676
G1 X97.442 Y99.973 E5.07226
G1 X97.265 Y99.389 E5.12776
G1 X97.204 Y98.774 E5.18399
G1 X97.265 Y98.173 E5.23892
G1 X97.442 Y97.590 E5.29428
G1 X97.730 Y97.052 E5.34978
G1 X98.117 Y96.580 E5.40529
G1 X98.589 Y96.193 E5.46079
G1 X99.136 Y95.900 E5.51720
G1 X99.770 Y95.722 E5.57705
G1 X100.319 Y95.668 E5.62722
G1 X100.926 Y95.728 E5.68273
G1 X101.510 Y95.905 E5.73823
G1 X102.049 Y96.193 E5.79373
G1 X102.520 Y96.580 E5.84923
G1 X102.870 Y97.005 E5.89928
G1 X102.386 Y97.400 F7800.000
G1 F1800
G1 X102.615 Y97.830 E5.94359
G1 X102.757 Y98.297 E5.98790
G1 X102.804 Y98.781 E6.03221
G1 X102.757 Y99.266 E6.07652
G1 X102.615 Y99.733 E6.12083
G1 X102.386 Y100.162 E6.16514
G1 X102.076 Y100.539 E6.20945
G1 X101.700 Y100.848 E6.25375
G1 X101.270 Y101.078 E6.29806
G1 X100.804 Y101.219 E6.34237
G1 X100.319 Y101.267 E6.38668
G1 X99.834 Y101.219 E6.43099
G1 X99.367 Y101.078 E6.47530
G1 X98.938 Y100.848 E6.51961
G1 X98.561 Y100.539 E6.56392
G1 X98.252 Y100.162 E6.60823
G1 X98.022 Y99.733 E6.65254
G1 X97.881 Y99.266 E6.69685
G1 X97.832 Y98.775 E6.74180
G1 X97.881 Y98.296 E6.78553
G1 X98.022 Y97.830 E6.82979
G1 X98.252 Y97.400 E6.87410
G1 X98.561 Y97.024 E6.91841
G1 X98.938 Y96.715 E6.96272
G1 X99.371 Y96.483 E7.00735
G1 X99.886 Y96.338 E7.05601
G1 X100.319 Y96.296 E7.09557
G1 X100.804 Y96.343 E7.13988
G1 X101.270 Y96.485 E7.18419
G1 X101.700 Y96.715 E7.22850
G1 X102.076 Y97.024 E7.27281
G1 X102.347 Y97.354 E7.31166
G1 X102.386 Y97.400 F7800.000
G1 E5.31166 F2400.00000
G92 E0
G1 X124.400 Y87.650 F7800.000
G1 E2.00000 F2400.00000
G1 F1800
G1 X124.400 Y113.850 E4.38234
G1 X138.400 Y113.850 E5.65536
G1 X138.400 Y129.027 E7.03541
G1 X136.976 Y127.948 E7.19788
G1 X135.467 Y127.335 E7.34597
G1 X133.851 Y127.132 E7.49405
G1 X132.238 Y127.355 E7.64214
G1 X130.737 Y127.988 E7.79023
G1 X129.452 Y128.987 E7.93832
G1 X128.468 Y130.286 E8.08640
G1 X127.855 Y131.794 E8.23450
G1 X127.652 Y133.410 E8.38258
G1 X127.875 Y135.024 E8.53067
G1 X128.508 Y136.524 E8.67876
G1 X129.508 Y137.810 E8.82685
G1 X130.280 Y138.395 E8.91492
G1 X130.194 Y138.650 E8.93943
G1 X128.150 Y138.650 E9.12526
G1 X128.150 Y142.150 E9.44351
G1 X71.850 Y142.150 E14.56289
G1 X71.850 Y138.650 E14.88115
G1 X69.806 Y138.650 E15.06697
G1 X69.720 Y138.395 E15.09148
G1 X70.492 Y137.810 E15.17956
G1 X71.492 Y136.524 E15.32764
G1 X72.125 Y135.024 E15.47573
G1 X72.348 Y133.410 E15.62382
G1 X72.145 Y131.794 E15.77190
G1 X71.532 Y130.286 E15.91999
G1 X70.548 Y128.987 E16.06808
G1 X69.263 Y127.988 E16.21617
G1 X67.762 Y127.355 E16.36426
G1 X66.149 Y127.132 E16.51234
G1 X64.533 Y127.335 E16.66043
G1 X63.024 Y127.948 E16.80852
G1 X61.600 Y129.027 E16.97098
G1 X61.600 Y113.850 E18.35104
G1 X75.600 Y113.850 E19.62405
G1 X75.600 Y87.650 E22.00639
G1 X61.600 Y87.650 E23.27941
G1 X61.600 Y72.473 E24.65946
G1 X63.024 Y73.552 E24.82192
G1 X64.533 Y74.165 E24.97001
G1 X66.149 Y74.368 E25.11810
G1 X67.762 Y74.145 E25.26619
G1 X69.263 Y73.512 E25.41427
G1 X70.548 Y72.512 E25.56236
G1 X71.532 Y71.214 E25.71045
G1 X72.145 Y69.706 E25.85854
G1 X72.348 Y68.090 E26.00663
G1 X72.125 Y66.476 E26.15471
G1 X71.492 Y64.976 E26.30280
G1 X70.492 Y63.690 E26.45089
G1 X69.720 Y63.105 E26.53896
G1 X69.806 Y62.850 E26.56347
G1 X71.850 Y62.850 E26.74930
G1 X71.850 Y59.350 E27.06755
G1 X128.150 Y59.350 E32.18694
G1 X128.150 Y62.850 E32.50519
G1 X130.194 Y62.850 E32.69101
G1 X130.280 Y63.105 E32.71553
G1 X129.508 Y63.690 E32.80360
G1 X128.508 Y64.976 E32.95169
G1 X127.875 Y66.476 E33.09978
G1 X127.652 Y68.090 E33.24786
G1 X127.855 Y69.706 E33.39595
G1 X128.040 Y70.161 E33.44061
G1 X128.468 Y71.214 E33.54404
G1 X129.452 Y72.512 E33.69213
G1 X130.737 Y73.512 E33.84021
G1 X132.238 Y74.145 E33.98830
G1 X133.851 Y74.368 E34.13639
G1 X135.467 Y74.165 E34.28448
G1 X136.976 Y73.552 E34.43256
G1 X138.400 Y72.473 E34.59503
G1 X138.400 Y87.650 E35.97509
G1 X124.460 Y87.650 E37.24265
G1 X125.025 Y88.275 F7800.000
G1 F1800
G1 X125.025 Y113.225 E39.51135
G1 X139.025 Y113.225 E40.78436
G1 X139.025 Y130.503 E42.35544
G1 X138.772 Y130.590 E42.37979
G1 X137.831 Y129.380 E42.51912
G1 X136.664 Y128.496 E42.65225
G1 X135.308 Y127.944 E42.78537
G1 X133.855 Y127.763 E42.91850
G1 X132.405 Y127.963 E43.05163
G1 X131.056 Y128.532 E43.18475
G1 X129.900 Y129.430 E43.31788
G1 X129.016 Y130.597 E43.45100
G1 X128.465 Y131.954 E43.58413
G1 X128.283 Y133.406 E43.71726
G1 X128.483 Y134.857 E43.85038
G1 X129.052 Y136.206 E43.98351
G1 X129.950 Y137.362 E44.11664
G1 X131.118 Y138.245 E44.24976
G1 X132.474 Y138.797 E44.38289
G1 X133.484 Y138.924 E44.47549
G1 X133.462 Y139.275 E44.50752
G1 X128.775 Y139.275 E44.93372
G1 X128.775 Y142.775 E45.25197
G1 X71.225 Y142.775 E50.48500
G1 X71.225 Y139.275 E50.80325
G1 X66.538 Y139.275 E51.22944
G1 X66.516 Y138.924 E51.26147
G1 X67.526 Y138.797 E51.35407
G1 X68.882 Y138.245 E51.48720
G1 X70.050 Y137.362 E51.62032
G1 X70.948 Y136.206 E51.75345
G1 X71.517 Y134.857 E51.88657
G1 X71.573 Y134.450 E51.92386
G1 X71.717 Y133.406 E52.01970
G1 X71.535 Y131.954 E52.15283
G1 X70.984 Y130.597 E52.28595
G1 X70.736 Y130.271 E52.32324
G1 X70.100 Y129.430 E52.41908
G1 X68.944 Y128.532 E52.55221
G1 X67.595 Y127.963 E52.68533
G1 X66.145 Y127.763 E52.81846
G1 X64.692 Y127.944 E52.95159
G1 X63.336 Y128.496 E53.08471
G1 X62.169 Y129.380 E53.21784
G1 X61.228 Y130.590 E53.35717
G1 X60.975 Y130.503 E53.38152
G1 X60.975 Y113.225 E54.95260
G1 X74.975 Y113.225 E56.22561
G1 X74.975 Y88.275 E58.49431
G1 X60.975 Y88.275 E59.76733
G1 X60.975 Y70.997 E61.33841
G1 X61.228 Y70.910 E61.36276
G1 X62.169 Y72.120 E61.50209
G1 X63.336 Y73.004 E61.63522
G1 X64.692 Y73.555 E61.76834
G1 X66.145 Y73.737 E61.90147
G1 X67.595 Y73.537 E62.03459
G1 X68.944 Y72.968 E62.16772
G1 X70.100 Y72.070 E62.30085
G1 X70.984 Y70.902 E62.43397
G1 X71.535 Y69.546 E62.56710
G1 X71.717 Y68.094 E62.70023
G1 X71.517 Y66.643 E62.83335
G1 X70.948 Y65.294 E62.96648
G1 X70.050 Y64.138 E63.09960
G1 X68.882 Y63.255 E63.23273
G1 X67.526 Y62.703 E63.36586
G1 X66.516 Y62.576 E63.45846
G1 X66.538 Y62.225 E63.49050
G1 X71.225 Y62.225 E63.91670
G1 X71.225 Y58.725 E64.23495
G1 X128.775 Y58.725 E69.46798
G1 X128.775 Y62.225 E69.78623
G1 X133.462 Y62.225 E70.21243
G1 X133.484 Y62.576 E70.24446
G1 X132.474 Y62.703 E70.33707
G1 X131.118 Y63.255 E70.47020
G1 X129.950 Y64.138 E70.60332
G1 X129.052 Y65.294 E70.73645
G1 X128.483 Y66.643 E70.86958
G1 X128.283 Y68.094 E71.00270
G1 X128.465 Y69.546 E71.13583
G1 X129.016 Y70.902 E71.26895
G1 X129.900 Y72.070 E71.40208
G1 X131.056 Y72.968 E71.53521
G1 X132.405 Y73.537 E71.66833
G1 X133.855 Y73.737 E71.80146
G1 X135.308 Y73.555 E71.93459
G1 X136.664 Y73.004 E72.06771
G1 X137.831 Y72.120 E72.20084
G1 X138.772 Y70.910 E72.34017
G1 X139.025 Y70.997 E72.36452
G1 X139.025 Y88.275 E73.93560
G1 X125.085 Y88.275 E75.20316
G1 E73.20316 F2400.00000
G92 E0
G1 X138.400 Y63.800 F7800.000
G1 E2.00000 F2400.00000
G1 F1800
G1 X137.503 Y63.103 E2.10334
G1 X137.590 Y62.850 E2.12768
G1 X138.400 Y62.850 E2.20137
G1 X138.400 Y63.740 E2.28237
G1 X139.025 Y65.276 F7800.000
G1 F1800
G1 X138.770 Y65.361 E2.30688
G1 X137.882 Y64.189 E2.44063
G1 X136.726 Y63.290 E2.57376
G1 X135.377 Y62.721 E2.70689
G1 X134.310 Y62.574 E2.80479
G1 X134.334 Y62.225 E2.83662
G1 X139.025 Y62.225 E3.26318
G1 X139.025 Y65.216 E3.53513
G1 E1.53513 F2400.00000
G92 E0
G1 X62.497 Y63.103 F7800.000
G1 E2.00000 F2400.00000
G1 F1800
G1 X61.600 Y63.800 E2.10334
G1 X61.600 Y62.850 E2.18979
G1 X62.410 Y62.850 E2.26348
G1 X62.477 Y63.046 E2.28237
G1 X60.975 Y62.225 F7800.000
G1 F1800
G1 X65.666 Y62.225 E2.70892
G1 X65.690 Y62.574 E2.74075
G1 X64.623 Y62.721 E2.83866
G1 X63.274 Y63.290 E2.97178
G1 X62.118 Y64.189 E3.10491
G1 X61.230 Y65.361 E3.23866
G1 X60.975 Y65.275 E3.26317
G1 X60.975 Y62.285 E3.53511
G1 E1.53511 F2400.00000
G92 E0
G1 X62.741 Y64.496 F7800.000
G1 E2.00000 F2400.00000
G1 F1800
G1 X63.593 Y63.834 E2.09813
G1 X64.790 Y63.329 E2.21629
G1 X66.078 Y63.151 E2.33445
G1 X67.367 Y63.313 E2.45262
G1 X68.571 Y63.802 E2.57079
G1 X69.607 Y64.587 E2.68895
G1 X70.404 Y65.613 E2.80712
G1 X70.909 Y66.810 E2.92528
G1 X71.087 Y68.098 E3.04345
G1 X70.926 Y69.387 E3.16161
G1 X70.436 Y70.591 E3.27978
G1 X69.651 Y71.627 E3.39794
G1 X68.625 Y72.424 E3.51611
G1 X67.428 Y72.929 E3.63427
G1 X66.141 Y73.107 E3.75244
G1 X64.851 Y72.946 E3.87060
G1 X63.647 Y72.456 E3.98877
G1 X62.611 Y71.671 E4.10693
G1 X61.814 Y70.645 E4.22510
G1 X61.309 Y69.448 E4.34326
G1 X61.131 Y68.161 E4.46143
G1 X61.293 Y66.871 E4.57959
G1 X61.782 Y65.668 E4.69776
G1 X62.567 Y64.632 E4.81593
G1 X62.693 Y64.533 E4.83051
G1 X62.657 Y64.105 F7800.000
G1 E2.83051 F2400.00000
G92 E0
G1 X66.141 Y128.393 F7800.000
G1 E2.00000 F2400.00000
G1 F1800
G1 X67.428 Y128.571 E2.11816
G1 X68.625 Y129.076 E2.23633
G1 X69.651 Y129.873 E2.35449
G1 X70.436 Y130.909 E2.47266
G1 X70.926 Y132.113 E2.59082
G1 X71.087 Y133.402 E2.70899
G1 X70.909 Y134.690 E2.82715
G1 X70.404 Y135.887 E2.94532
G1 X69.607 Y136.913 E3.06348
G1 X68.571 Y137.698 E3.18165
G1 X67.367 Y138.187 E3.29981
G1 X66.078 Y138.349 E3.41798
G1 X64.790 Y138.171 E3.53614
G1 X63.593 Y137.666 E3.65431
G1 X62.567 Y136.868 E3.77247
G1 X61.782 Y135.832 E3.89064
G1 X61.293 Y134.629 E4.00881
G1 X61.131 Y133.339 E4.12697
G1 X61.309 Y132.052 E4.24514
G1 X61.814 Y130.854 E4.36330
G1 X62.611 Y129.829 E4.48146
G1 X63.647 Y129.044 E4.59963
G1 X64.851 Y128.554 E4.71779
G1 X66.081 Y128.400 E4.83051
G1 X66.141 Y128.393 F7800.000
G1 E2.83051 F2400.00000
G92 E0
G1 X61.600 Y137.700 F7800.000
G1 E2.00000 F2400.00000
G1 F1800
G1 X62.497 Y138.397 E2.10333
G1 X62.410 Y138.650 E2.12768
G1 X61.600 Y138.650 E2.20136
G1 X61.600 Y137.760 E2.28236
G1 X60.975 Y136.224 F7800.000
G1 F1800
G1 X61.230 Y136.139 E2.30687
G1 X62.118 Y137.311 E2.44062
G1 X63.274 Y138.210 E2.57375
G1 X64.623 Y138.779 E2.70687
G1 X65.690 Y138.926 E2.80477
G1 X65.666 Y139.275 E2.83660
G1 X60.975 Y139.275 E3.26314
G1 X60.975 Y136.284 E3.53509
G1 E1.53509 F2400.00000
G92 E0
G1 X70.600 Y139.900 F7800.000
G1 E2.00000 F2400.00000
G1 F1800
G1 X60.350 Y139.900 E2.93203
G1 X60.350 Y112.600 E5.41441
G1 X74.350 Y112.600 E6.68742
G1 X74.350 Y88.900 E8.84248
G1 X60.350 Y88.900 E10.11549
G1 X60.350 Y61.600 E12.59788
G1 X70.600 Y61.600 E13.52990
G1 X70.600 Y59.400 E13.72995
G1 X60.350 Y59.400 E14.66198
G1 X60.350 Y58.100 E14.78018
G1 X139.650 Y58.100 E21.99091
G1 X139.650 Y59.400 E22.10912
G1 X129.400 Y59.400 E23.04114
G1 X129.400 Y61.600 E23.24119
G1 X139.650 Y61.600 E24.17322
G1 X139.650 Y88.900 E26.65560
G1 X125.650 Y88.900 E27.92861
G1 X125.650 Y112.600 E30.08367
G1 X139.650 Y112.600 E31.35668
G1 X139.650 Y139.900 E33.83906
G1 X129.400 Y139.900 E34.77110
G1 X129.400 Y142.100 E34.97114
G1 X139.650 Y142.100 E35.90317
G1 X139.650 Y143.400 E36.02138
G1 X60.350 Y143.400 E43.23210
G1 X60.350 Y142.100 E43.35031
G1 X70.600 Y142.100 E44.28234
G1 X70.600 Y139.960 E44.47693
G1 X70.775 Y139.540 F7800.000
G1 X69.467 Y138.622 F7800.000
G1 F1800
G1 X69.125 Y138.733 E44.50003
