; generated by Slic3r 1.3.0-dev on 2018-09-26 at 15:25:39

; external perimeters extrusion width = 0.44mm (3.38mm^3/s)
; perimeters extrusion width = 0.48mm (7.54mm^3/s)
; infill extrusion width = 0.48mm (10.05mm^3/s)
; solid infill extrusion width = 0.48mm (2.51mm^3/s)
; top infill extrusion width = 0.48mm (1.88mm^3/s)

M107
M104 S200 ; set temperature
G28 ; home all axes
G1 Z5 F5000 ; lift nozzle

; Filament gcode

M109 S200 ; set temperature and wait for it to be reached
G21 ; set units to millimeters
G90 ; use absolute coordinates
M82 ; use absolute distances for extrusion
G92 E0
G1 Z0.350 F7800.000
G1 E-2.00000 F2400.00000
G92 E0
G1 X72.941 Y52.414 F7800.000
G1 E2.00000 F2400.00000
G1 F1800
G1 X74.845 Y51.135 E2.20854
G1 X77.531 Y50.566 E2.45828
G1 X122.613 Y50.566 E6.55754
G1 X124.872 Y50.963 E6.76608
G1 X126.860 Y52.106 E6.97462
G1 X128.339 Y53.859 E7.18317
G1 X129.198 Y56.467 E7.43290
G1 X132.658 Y87.967 E10.31441
G1 X132.697 Y88.690 E10.38026
G1 X132.697 Y111.690 E12.47164
G1 X132.300 Y113.949 E12.68019
G1 X131.157 Y115.937 E12.88873
G1 X129.404 Y117.417 E13.09727
G1 X127.504 Y118.159 E13.28275
G1 X124.004 Y118.934 E13.60871
G1 X122.572 Y119.090 E13.73968
G1 X77.572 Y119.090 E17.83151
G1 X76.140 Y118.934 E17.96248
G1 X72.640 Y118.159 E18.28843
G1 X70.521 Y117.283 E18.49697
G1 X68.827 Y115.737 E18.70552
G1 X67.761 Y113.706 E18.91406
G1 X67.447 Y111.690 E19.09955
G1 X67.447 Y88.690 E21.19093
G1 X67.487 Y87.967 E21.25678
G1 X70.946 Y56.467 E24.13829
G1 X71.587 Y54.265 E24.34683
G1 X72.905 Y52.462 E24.54992
G1 E22.54992 F2400.00000
G92 E0
G1 X87.082 Y101.800 F7800.000
G1 E2.00000 F2400.00000
G1 F1800
G1 X79.863 Y101.800 E2.65642
G1 X79.863 Y87.679 E3.94040
G1 X87.082 Y87.679 E4.59682
G1 X87.082 Y101.740 E5.87534
G1 X86.457 Y101.175 F7800.000
G1 F1800
G1 X80.488 Y101.175 E6.41812
G1 X80.488 Y88.304 E7.58845
G1 X86.457 Y88.304 E8.13124
G1 X86.457 Y101.115 E9.29611
G1 X86.514 Y101.571 F7800.000
G1 E7.29611 F2400.00000
G92 E0
G1 X87.082 Y76.480 F7800.000
G1 E2.00000 F2400.00000
G1 F1800
G1 X79.863 Y76.480 E2.65642
G1 X79.863 Y62.360 E3.94040
G1 X87.082 Y62.360 E4.59682
G1 X87.082 Y76.420 E5.87534
G1 X86.457 Y75.856 F7800.000
G1 F1800
G1 X80.488 Y75.856 E6.41812
G1 X80.488 Y62.985 E7.58845
G1 X86.457 Y62.985 E8.13123
G1 X86.457 Y75.796 E9.29611
G1 X86.514 Y76.251 F7800.000
G1 E7.29611 F2400.00000
G92 E0
G1 X98.472 Y76.160 F7800.000
G1 E2.00000 F2400.00000
G1 F1800
G1 X110.672 Y76.160 E3.10930
G1 X110.672 Y87.790 E4.16683
G1 X98.472 Y87.790 E5.27613
G1 X98.472 Y76.220 E6.32820
G1 X99.097 Y76.785 F7800.000
G1 F1800
G1 X110.047 Y76.785 E7.32386
G1 X110.047 Y87.165 E8.26775
G1 X99.097 Y87.165 E9.26341
G1 X99.097 Y76.845 E10.20184
G1 X99.722 Y77.410 F7800.000
G1 F1800
G1 X109.422 Y77.410 E11.08385
G1 X109.422 Y86.540 E11.91410
G1 X99.722 Y86.540 E12.79612
G1 X99.722 Y77.470 E13.62091
G1 X99.615 Y77.025 F7800.000
G1 E11.62091 F2400.00000
G92 E0
G1 X87.707 Y77.105 F7800.000
G1 E2.00000 F2400.00000
G1 F1800
G1 X87.707 Y61.735 E3.39762
G1 X79.131 Y61.735 E4.17737
G1 X79.131 Y58.790 E4.44513
G1 X121.013 Y58.790 E8.25346
G1 X121.013 Y90.290 E11.11774
G1 X124.472 Y90.290 E11.43228
G1 X124.472 Y110.091 E13.23273
G1 X120.972 Y110.091 E13.55098
G1 X120.972 Y110.865 E13.62143
G1 X79.172 Y110.865 E17.42233
G1 X79.172 Y110.091 E17.49277
G1 X75.672 Y110.091 E17.81103
G1 X75.672 Y90.290 E19.61147
G1 X79.238 Y90.290 E19.93570
G1 X79.238 Y102.425 E21.03909
G1 X87.707 Y102.425 E21.80915
G1 X87.707 Y87.054 E23.20677
G1 X79.131 Y87.054 E23.98652
G1 X79.131 Y77.105 E24.89120
G1 X87.647 Y77.105 E25.66550
G1 E23.66550 F2400.00000
G92 E0
G1 X78.506 Y89.665 F7800.000
G1 E2.00000 F2400.00000
G1 F1800
G1 X78.506 Y58.165 E4.86429
G1 X121.638 Y58.165 E8.78625
G1 X121.638 Y89.665 E11.65054
G1 X125.097 Y89.665 E11.96508
G1 X125.097 Y110.716 E13.87916
G1 X121.597 Y110.716 E14.19742
G1 X121.597 Y111.490 E14.26787
G1 X78.547 Y111.490 E18.18240
G1 X78.547 Y110.716 E18.25285
G1 X75.047 Y110.716 E18.57110
G1 X75.047 Y89.665 E20.48519
G1 X78.446 Y89.665 E20.79428
G1 X77.881 Y89.040 F7800.000
G1 F1800
G1 X77.881 Y57.540 E23.65856
G1 X122.263 Y57.540 E27.69417
G1 X122.263 Y89.040 E30.55845
G1 X125.722 Y89.040 E30.87299
G1 X125.722 Y111.340 E32.90072
G1 X122.222 Y111.340 E33.21898
G1 X122.222 Y112.115 E33.28943
G1 X77.922 Y112.115 E37.31761
G1 X77.922 Y111.340 E37.38805
G1 X74.422 Y111.340 E37.70630
G1 X74.422 Y89.040 E39.73403
G1 X77.821 Y89.040 E40.04312
G1 X78.238 Y88.859 F7800.000
G1 X79.184 Y89.978 F7800.000
G1 F1800
G1 X79.184 Y87.367 E40.29248
G1 E38.29248 F2400.00000
G92 E0
G1 X79.184 Y76.793 F7800.000
G1 E2.00000 F2400.00000
G1 F1800
G1 X79.184 Y62.047 E3.40827
G1 E1.40827 F2400.00000
G92 E0
G1 X79.999 Y59.172 F7800.000
G1 E2.00000 F2400.00000
G1 F1800
G1 X79.513 Y59.658 E2.06284
G1 X79.513 Y60.546 E2.14400
G1 X80.887 Y59.172 E2.32161
G1 X81.776 Y59.172 E2.40277
G1 X79.594 Y61.353 E2.68464
G1 X80.483 Y61.353 E2.76580
G1 X82.664 Y59.172 E3.04767
G1 X83.552 Y59.172 E3.12883
G1 X81.371 Y61.353 E3.41070
G1 X82.259 Y61.353 E3.49186
G1 X84.440 Y59.172 E3.77373
G1 X85.328 Y59.172 E3.85489
G1 X83.147 Y61.353 E4.13675
G1 X84.035 Y61.353 E4.21791
G1 X86.216 Y59.172 E4.49978
G1 X87.104 Y59.172 E4.58094
G1 X84.923 Y61.353 E4.86281
G1 X85.811 Y61.353 E4.94397
G1 X87.992 Y59.172 E5.22584
G1 X88.881 Y59.172 E5.30700
G1 X86.700 Y61.353 E5.58886
G1 X87.588 Y61.353 E5.67002
G1 X89.769 Y59.172 E5.95189
G1 X90.657 Y59.172 E6.03305
G1 X88.088 Y61.741 E6.36499
G1 X88.088 Y62.629 E6.44615
G1 X91.545 Y59.172 E6.89286
G1 X92.433 Y59.172 E6.97402
G1 X88.088 Y63.517 E7.53551
G1 X88.088 Y64.405 E7.61667
G1 X93.321 Y59.172 E8.29294
G1 X94.209 Y59.172 E8.37410
G1 X88.088 Y65.293 E9.16514
G1 X88.088 Y66.181 E9.24630
G1 X95.098 Y59.172 E10.15212
G1 X95.986 Y59.172 E10.23328
G1 X88.088 Y67.069 E11.25388
G1 X88.088 Y67.957 E11.33504
G1 X96.874 Y59.172 E12.47042
G1 X97.762 Y59.172 E12.55158
G1 X88.088 Y68.846 E13.80174
G1 X88.088 Y69.734 E13.88290
G1 X98.650 Y59.172 E15.24783
G1 X99.538 Y59.172 E15.32899
G1 X88.088 Y70.622 E16.80870
G1 X88.088 Y71.510 E16.88986
G1 X100.426 Y59.172 E18.48435
G1 X101.314 Y59.172 E18.56551
G1 X88.088 Y72.398 E20.27477
G1 X88.088 Y73.286 E20.35593
G1 X102.203 Y59.172 E22.17997
G1 X103.091 Y59.172 E22.26113
G1 X88.088 Y74.174 E24.19995
G1 X88.088 Y75.063 E24.28111
G1 X103.979 Y59.172 E26.33471
G1 X104.867 Y59.172 E26.41587
G1 X88.088 Y75.951 E28.58425
G1 X88.088 Y76.839 E28.66541
G1 X105.755 Y59.172 E30.94856
G1 X106.643 Y59.172 E31.02972
G1 X88.088 Y77.727 E33.42765
G1 E31.42765 F2400.00000
G92 E0
G1 X79.849 Y77.973 F7800.000
G1 E2.00000 F2400.00000
G1 F1800
G1 X79.513 Y77.973 E2.03069
G1 X79.513 Y78.309 E2.06139
G1 X80.335 Y77.487 E2.16761
G1 X81.223 Y77.487 E2.24877
G1 X79.513 Y79.197 E2.46977
G1 X79.513 Y80.085 E2.55093
G1 X82.111 Y77.487 E2.88671
G1 X82.999 Y77.487 E2.96787
G1 X79.513 Y80.973 E3.41843
G1 X79.513 Y81.862 E3.49959
G1 X83.887 Y77.487 E4.06492
G1 X84.776 Y77.487 E4.14608
G1 X79.513 Y82.750 E4.82619
G1 X79.513 Y83.638 E4.90735
G1 X85.664 Y77.487 E5.70224
G1 X86.552 Y77.487 E5.78340
G1 X79.513 Y84.526 E6.69307
G1 X79.513 Y85.414 E6.77423
G1 X87.440 Y77.487 E7.79867
G1 X88.328 Y77.487 E7.87983
G1 X79.513 Y86.302 E9.01905
G1 X79.513 Y86.673 E9.05290
G1 X80.031 Y86.673 E9.10021
G1 X107.531 Y59.172 E12.65424
G1 X108.419 Y59.172 E12.73540
G1 X80.919 Y86.673 E16.28943
G1 X81.807 Y86.673 E16.37059
G1 X109.308 Y59.172 E19.92462
G1 X110.196 Y59.172 E20.00578
G1 X82.695 Y86.673 E23.55980
G1 X83.583 Y86.673 E23.64096
G1 X111.084 Y59.172 E27.19499
G1 X111.972 Y59.172 E27.27615
G1 X84.471 Y86.673 E30.83018
G1 X85.360 Y86.673 E30.91134
G1 X112.860 Y59.172 E34.46537
G1 X113.748 Y59.172 E34.54653
G1 X86.248 Y86.673 E38.10055
G1 X87.136 Y86.673 E38.18171
G1 X97.605 Y76.204 E39.53464
G1 X97.605 Y75.778 E39.57354
G1 X98.030 Y75.778 E39.61244
G1 X114.636 Y59.172 E41.75853
G1 X115.525 Y59.172 E41.83969
G1 X98.918 Y75.778 E43.98578
G1 X99.807 Y75.778 E44.06694
G1 X116.413 Y59.172 E46.21303
G1 X117.301 Y59.172 E46.29419
G1 X100.695 Y75.778 E48.44028
G1 X101.583 Y75.778 E48.52144
G1 X118.189 Y59.172 E50.66753
G1 X119.077 Y59.172 E50.74869
G1 X102.471 Y75.778 E52.89478
G1 X103.359 Y75.778 E52.97594
G1 X119.965 Y59.172 E55.12203
G1 X120.631 Y59.172 E55.18291
G1 X120.631 Y59.394 E55.20319
G1 X104.247 Y75.778 E57.32060
G1 X105.135 Y75.778 E57.40176
G1 X120.631 Y60.282 E59.40440
G1 X120.631 Y61.170 E59.48556
G1 X106.023 Y75.778 E61.37342
G1 X106.912 Y75.778 E61.45458
G1 X120.631 Y62.058 E63.22766
G1 X120.631 Y62.946 E63.30882
G1 X107.800 Y75.778 E64.96713
G1 X108.688 Y75.778 E65.04829
G1 X120.631 Y63.835 E66.59182
G1 X120.631 Y64.723 E66.67298
G1 X109.576 Y75.778 E68.10173
G1 X110.464 Y75.778 E68.18289
G1 X120.631 Y65.611 E69.49686
G1 X120.631 Y66.499 E69.57802
G1 X111.054 Y76.077 E70.81578
G1 X111.054 Y76.965 E70.89694
G1 X120.631 Y67.387 E72.13469
G1 X120.631 Y68.275 E72.21585
G1 X111.054 Y77.853 E73.45361
G1 X111.054 Y78.741 E73.53477
G1 X120.631 Y69.163 E74.77253
G1 X120.631 Y70.052 E74.85369
G1 X111.054 Y79.629 E76.09145
G1 X111.054 Y80.517 E76.17261
G1 X120.631 Y70.940 E77.41036
G1 X120.631 Y71.828 E77.49152
G1 X111.054 Y81.405 E78.72928
G1 X111.054 Y82.294 E78.81044
G1 X120.631 Y72.716 E80.04820
G1 X120.631 Y73.604 E80.12936
G1 X111.054 Y83.182 E81.36712
G1 X111.054 Y84.070 E81.44828
G1 X120.631 Y74.492 E82.68604
G1 X120.631 Y75.380 E82.76719
G1 X111.054 Y84.958 E84.00495
G1 X111.054 Y85.846 E84.08611
G1 X120.631 Y76.268 E85.32387
G1 X120.631 Y77.157 E85.40503
G1 X111.054 Y86.734 E86.64279
G1 X111.054 Y87.622 E86.72395
G1 X120.631 Y78.045 E87.96171
G1 X120.631 Y78.933 E88.04287
G1 X111.054 Y88.510 E89.28062
G1 E87.28062 F2400.00000
G92 E0
G1 X98.091 Y75.718 F7800.000
G1 E2.00000 F2400.00000
G1 F1800
G1 X98.091 Y76.606 E2.08116
G1 X88.024 Y86.673 E3.38212
G1 X88.088 Y86.673 E3.38800
G1 X88.088 Y87.496 E3.46328
G1 X98.091 Y77.494 E4.75592
G1 X98.091 Y78.382 E4.83708
G1 X88.088 Y88.384 E6.12971
G1 X88.088 Y89.273 E6.21087
G1 X98.091 Y79.270 E7.50351
G1 X98.091 Y80.159 E7.58467
G1 X88.088 Y90.161 E8.87730
G1 X88.088 Y91.049 E8.95846
G1 X98.091 Y81.047 E10.25110
G1 X98.091 Y81.935 E10.33226
G1 X88.088 Y91.937 E11.62490
G1 X88.088 Y92.825 E11.70606
G1 X98.091 Y82.823 E12.99869
G1 X98.091 Y83.711 E13.07985
G1 X88.088 Y93.713 E14.37249
G1 X88.088 Y94.601 E14.45365
G1 X98.091 Y84.599 E15.74629
G1 X98.091 Y85.487 E15.82745
G1 X88.088 Y95.490 E17.12008
G1 X88.088 Y96.378 E17.20124
G1 X98.091 Y86.375 E18.49388
G1 X98.091 Y87.264 E18.57504
G1 X88.088 Y97.266 E19.86768
G1 X88.088 Y98.154 E19.94884
G1 X98.091 Y88.152 E21.24147
G1 X98.091 Y88.172 E21.24334
G1 X98.958 Y88.172 E21.32263
G1 X88.088 Y99.042 E22.72741
G1 X88.088 Y99.930 E22.80857
G1 X99.846 Y88.172 E24.32813
G1 X100.735 Y88.172 E24.40929
G1 X88.088 Y100.818 E26.04363
G1 X88.088 Y101.706 E26.12479
G1 X101.623 Y88.172 E27.87390
G1 X102.511 Y88.172 E27.95506
G1 X88.088 Y102.595 E29.81895
G1 E27.81895 F2400.00000
G92 E0
G1 X76.919 Y90.672 F7800.000
G1 E2.00000 F2400.00000
G1 F1800
G1 X76.054 Y91.538 E2.11186
G1 X76.054 Y92.426 E2.19302
G1 X77.808 Y90.672 E2.41966
G1 X78.696 Y90.672 E2.50082
G1 X76.054 Y93.314 E2.84224
G1 X76.054 Y94.202 E2.92340
G1 X78.856 Y91.400 E3.28552
G1 X78.856 Y92.288 E3.36668
G1 X76.054 Y95.090 E3.72880
G1 X76.054 Y95.978 E3.80996
G1 X78.856 Y93.176 E4.17208
G1 X78.856 Y94.064 E4.25324
G1 X76.054 Y96.866 E4.61536
G1 X76.054 Y97.755 E4.69652
G1 X78.856 Y94.953 E5.05864
G1 X78.856 Y95.841 E5.13980
G1 X76.054 Y98.643 E5.50193
G1 X76.054 Y99.531 E5.58309
G1 X78.856 Y96.729 E5.94521
G1 X78.856 Y97.617 E6.02637
G1 X76.054 Y100.419 E6.38849
G1 X76.054 Y101.307 E6.46965
G1 X78.856 Y98.505 E6.83177
G1 X78.856 Y99.393 E6.91293
G1 X76.054 Y102.195 E7.27505
G1 X76.054 Y103.083 E7.35621
G1 X78.856 Y100.281 E7.71833
G1 X78.856 Y101.169 E7.79949
G1 X76.054 Y103.972 E8.16161
G1 X76.054 Y104.860 E8.24277
G1 X78.856 Y102.058 E8.60489
G1 X78.856 Y102.807 E8.67334
G1 X78.995 Y102.807 E8.68605
G1 X76.054 Y105.748 E9.06615
G1 X76.054 Y106.636 E9.14731
G1 X79.883 Y102.807 E9.64219
G1 X80.771 Y102.807 E9.72335
G1 X76.054 Y107.524 E10.33300
G1 X76.054 Y108.412 E10.41416
G1 X81.659 Y102.807 E11.13860
G1 X82.548 Y102.807 E11.21976
G1 X76.054 Y109.300 E12.05897
G1 X76.054 Y109.709 E12.09630
G1 X76.533 Y109.709 E12.14013
G1 X83.436 Y102.807 E13.03214
G1 X84.324 Y102.807 E13.11330
G1 X77.422 Y109.709 E14.00531
G1 X78.310 Y109.709 E14.08647
G1 X85.212 Y102.807 E14.97847
G1 X86.100 Y102.807 E15.05963
G1 X79.198 Y109.709 E15.95164
G1 X79.554 Y109.709 E15.98418
G1 X79.554 Y110.241 E16.03280
G1 X86.988 Y102.807 E16.99358
G1 X87.876 Y102.807 E17.07474
G1 X80.199 Y110.484 E18.06687
G1 X81.088 Y110.484 E18.14803
G1 X103.399 Y88.172 E21.03145
G1 X104.287 Y88.172 E21.11261
G1 X81.976 Y110.484 E23.99604
G1 X82.864 Y110.484 E24.07720
G1 X105.175 Y88.172 E26.96062
G1 X106.063 Y88.172 E27.04178
G1 X83.752 Y110.484 E29.92521
G1 X84.640 Y110.484 E30.00637
G1 X106.952 Y88.172 E32.88979
G1 X107.840 Y88.172 E32.97095
G1 X85.528 Y110.484 E35.85438
G1 X86.416 Y110.484 E35.93554
G1 X108.728 Y88.172 E38.81896
G1 X109.616 Y88.172 E38.90012
G1 X87.304 Y110.484 E41.78355
G1 X88.193 Y110.484 E41.86471
G1 X110.504 Y88.172 E44.74813
G1 X111.392 Y88.172 E44.82929
G1 X89.081 Y110.484 E47.71271
G1 X89.969 Y110.484 E47.79387
G1 X120.631 Y79.821 E51.75655
G1 X120.631 Y80.709 E51.83771
G1 X90.857 Y110.484 E55.68561
G1 X91.745 Y110.484 E55.76677
G1 X120.631 Y81.597 E59.49990
G1 X120.631 Y82.485 E59.58106
G1 X92.633 Y110.484 E63.19940
G1 X93.521 Y110.484 E63.28056
G1 X120.631 Y83.374 E66.78413
G1 X120.631 Y84.262 E66.86529
G1 X94.409 Y110.484 E70.25408
G1 X95.298 Y110.484 E70.33524
G1 X120.631 Y85.150 E73.60925
G1 X120.631 Y86.038 E73.69041
G1 X96.186 Y110.484 E76.84965
G1 X97.074 Y110.484 E76.93081
G1 X120.631 Y86.926 E79.97527
G1 X120.631 Y87.814 E80.05643
G1 X97.962 Y110.484 E82.98611
G1 X98.850 Y110.484 E83.06727
G1 X120.631 Y88.702 E85.88217
G1 X120.631 Y89.590 E85.96333
G1 X99.738 Y110.484 E88.66346
G1 X100.626 Y110.484 E88.74462
G1 X120.631 Y90.479 E91.32997
G1 X120.631 Y90.672 E91.34765
G1 X121.326 Y90.672 E91.41113
G1 X101.515 Y110.484 E93.97146
G1 X102.403 Y110.484 E94.05262
G1 X122.214 Y90.672 E96.61296
G1 X123.102 Y90.672 E96.69412
G1 X103.291 Y110.484 E99.25445
G1 X104.179 Y110.484 E99.33561
G1 X123.990 Y90.672 E101.89595
G1 X124.091 Y90.672 E101.90510
G1 X124.091 Y91.460 E101.97711
G1 X105.067 Y110.484 E104.43561
G1 X105.955 Y110.484 E104.51677
G1 X124.091 Y92.348 E106.86050
G1 X124.091 Y93.236 E106.94166
G1 X106.843 Y110.484 E109.17061
G1 X107.731 Y110.484 E109.25177
G1 X124.091 Y94.124 E111.36595
G1 X124.091 Y95.013 E111.44711
G1 X108.620 Y110.484 E113.44650
G1 X109.508 Y110.484 E113.52766
G1 X124.091 Y95.901 E115.41228
G1 X124.091 Y96.789 E115.49344
G1 X110.396 Y110.484 E117.26329
G1 X111.284 Y110.484 E117.34445
G1 X124.091 Y97.677 E118.99951
G1 X124.091 Y98.565 E119.08067
G1 X112.172 Y110.484 E120.62096
G1 X113.060 Y110.484 E120.70212
G1 X124.091 Y99.453 E122.12763
G1 X124.091 Y100.341 E122.20879
G1 X113.948 Y110.484 E123.51952
G1 X114.836 Y110.484 E123.60068
G1 X124.091 Y101.229 E124.79663
G1 X124.091 Y102.118 E124.87779
G1 X115.725 Y110.484 E125.95897
G1 X116.613 Y110.484 E126.04013
G1 X124.091 Y103.006 E127.00653
G1 X124.091 Y103.894 E127.08769
G1 X117.501 Y110.484 E127.93931
G1 X118.389 Y110.484 E128.02047
G1 X124.091 Y104.782 E128.75732
G1 X124.091 Y105.670 E128.83848
G1 X119.277 Y110.484 E129.46054
G1 X120.105 Y110.484 E129.53616
G1 X120.105 Y109.709 E129.60696
G1 X120.940 Y109.709 E129.68330
G1 X124.091 Y106.558 E130.09047
G1 X124.091 Y107.446 E130.17163
G1 X121.828 Y109.709 E130.46402
G1 X122.716 Y109.709 E130.54517
G1 X124.091 Y108.335 E130.72279
G1 X124.091 Y109.223 E130.80395
G1 X123.604 Y109.709 E130.86678
G1 Z0.650 F7800.000
G1 E128.86678 F2400.00000
G92 E0
G1 X79.801 Y87.618 F7800.000
G1 E2.00000 F2400.00000
G1 F3600
G1 X87.143 Y87.618 E2.38356
G1 X87.143 Y101.861 E3.12768
G1 X79.801 Y101.861 E3.51124
G1 X79.801 Y87.678 E4.25223
G1 X80.220 Y88.037 F7800.000
G1 F900
G1 X86.724 Y88.037 E4.59202
G1 X86.724 Y101.442 E5.29237
G1 X80.220 Y101.442 E5.63216
G1 X80.220 Y88.097 E6.32938
G1 X80.618 Y88.434 F7800.000
