;FLAVOR:Marlin
;TIME:13551
;Filament used: 9.25156m
;Layer height: 0.2
;MINX:72.388
;MINY:66.144
;MINZ:0.2
;MAXX:147.468
;MAXY:164.35
;MAXZ:38.2
;Generated with Cura_SteamEngine 4.2.1
M140 S50
M105
M190 S50
M104 S200
M105
M109 S200
M82 ;absolute extrusion mode
M201 X500.00 Y500.00 Z100.00 E5000.00 ;Setup machine max acceleration
M203 X500.00 Y500.00 Z10.00 E50.00 ;Setup machine max feedrate
M204 P500.00 R1000.00 T500.00 ;Setup Print/Retract/Travel acceleration
M205 X8.00 Y8.00 Z0.40 E5.00 ;Setup Jerk
M220 S100 ;Reset Feedrate
M221 S100 ;Reset Flowrate

G28 ;Home

G92 E0 ;Reset Extruder
G1 Z2.0 F3000 ;Move Z Axis up
G1 X10.1 Y20 Z0.28 F5000.0 ;Move to start position
G1 X10.1 Y200.0 Z0.28 F1500.0 E15 ;Draw the first line
G1 X10.4 Y200.0 Z0.28 F5000.0 ;Move to side a little
G1 X10.4 Y20 Z0.28 F1500.0 E30 ;Draw the second line
G92 E0 ;Reset Extruder
G1 Z2.0 F3000 ;Move Z Axis up

M141 S28
G92 E0
G92 E0
G1 F1500 E-6
;LAYER_COUNT:191
;LAYER:0
M107
G0 F6000 X76.297 Y89.691 Z0.2
;TYPE:SKIRT
G1 F1500 E0
G1 F1200 X77.043 Y89.085 E0.03516
G1 X77.837 Y88.544 E0.07032
G1 X78.673 Y88.07 E0.10548
G1 X79.545 Y87.668 E0.14061
G1 X80.448 Y87.34 E0.17575
G1 X81.374 Y87.087 E0.21088
G1 X82.429 Y86.898 E0.25009
G1 X85.787 Y86.455 E0.37401
G1 X86.573 Y86.379 E0.4029
G1 X87.035 Y86.35 E0.41984
G1 X87.758 Y86.327 E0.4463
G1 X131.72 Y86.326 E2.0547
G1 X131.885 Y86.327 E2.06074
G1 X132.583 Y86.337 E2.08628
G1 X133.865 Y86.427 E2.1333
G1 X135.044 Y86.576 E2.17677
G1 X135.216 Y86.599 E2.18312
G1 X135.659 Y86.662 E2.19949
G1 X136.306 Y86.735 E2.22332
G1 X136.472 Y86.755 E2.22943
G1 X137.371 Y86.87 E2.26259
G1 X138.318 Y87.032 E2.29774
G1 X139.248 Y87.271 E2.33287
G1 X140.156 Y87.588 E2.36806
G1 X141.033 Y87.978 E2.40318
G1 X141.875 Y88.44 E2.43831
G1 X142.676 Y88.971 E2.47347
G1 X143.43 Y89.566 E2.50861
G1 X144.132 Y90.222 E2.54377
G1 X144.777 Y90.934 E2.57892
G1 X145.36 Y91.698 E2.61408
G1 X145.878 Y92.507 E2.64922
G1 X146.326 Y93.356 E2.68434
G1 X146.703 Y94.24 E2.7195
G1 X147.004 Y95.152 E2.75464
G1 X147.229 Y96.086 E2.78979
G1 X147.376 Y97.035 E2.82492
G1 X147.423 Y97.568 E2.8445
G1 X147.444 Y97.891 E2.85634
G1 X147.468 Y98.64 E2.88376
G1 X147.468 Y120.569 E3.68606
G1 X147.467 Y120.729 E3.69191
G1 X147.457 Y121.451 E3.71833
G1 X147.404 Y122.41 E3.75347
G1 X147.271 Y123.361 E3.7886
G1 X147.138 Y123.991 E3.81216
G1 X147.042 Y124.39 E3.82717
G1 X146.991 Y124.593 E3.83483
G1 X146.53 Y126.366 E3.90185
G1 X145.973 Y128.786 E3.99271
G1 X145.474 Y131.264 E4.08519
G1 X145.057 Y133.72 E4.17633
G1 X144.705 Y136.199 E4.26794
G1 X144.426 Y138.652 E4.35826
G1 X144.213 Y141.162 E4.45042
G1 X144.072 Y143.654 E4.54174
G1 X143.991 Y147.506 E4.6827
G1 X143.991 Y152.081 E4.85008
G1 X143.99 Y152.241 E4.85594
G1 X143.98 Y152.96 E4.88224
G1 X143.927 Y153.92 E4.91742
G1 X143.794 Y154.871 E4.95255
G1 X143.582 Y155.808 E4.9877
G1 X143.293 Y156.724 E5.02284
G1 X142.929 Y157.613 E5.05799
G1 X142.493 Y158.469 E5.09313
G1 X141.986 Y159.285 E5.12828
G1 X141.414 Y160.057 E5.16343
G1 X140.779 Y160.778 E5.19858
G1 X140.087 Y161.444 E5.23372
G1 X139.341 Y162.05 E5.26889
G1 X138.548 Y162.591 E5.30401
G1 X137.713 Y163.066 E5.33915
G1 X136.841 Y163.468 E5.37428
G1 X135.938 Y163.797 E5.40945
G1 X135.011 Y164.05 E5.4446
G1 X134.067 Y164.225 E5.47973
G1 X132.798 Y164.334 E5.52633
G1 X132.475 Y164.344 E5.53815
G1 X132.118 Y164.35 E5.55121
G1 X88.112 Y164.35 E7.16122
G1 X87.963 Y164.349 E7.16667
G1 X87.265 Y164.34 E7.19221
G1 X86.306 Y164.288 E7.22735
G1 X85.354 Y164.156 E7.26251
G1 X84.417 Y163.945 E7.29765
G1 X83.501 Y163.657 E7.33278
G1 X82.611 Y163.294 E7.36795
G1 X81.755 Y162.858 E7.4031
G1 X80.938 Y162.353 E7.43824
G1 X80.166 Y161.781 E7.47339
G1 X79.445 Y161.147 E7.50851
G1 X78.778 Y160.456 E7.54365
G1 X78.171 Y159.711 E7.57881
G1 X77.629 Y158.918 E7.61395
G1 X77.154 Y158.083 E7.6491
G1 X76.75 Y157.211 E7.68426
G1 X76.42 Y156.309 E7.7194
G1 X76.166 Y155.383 E7.75453
G1 X75.991 Y154.438 E7.78969
G1 X75.878 Y153.113 E7.83834
G1 X75.869 Y152.78 E7.85053
G1 X75.865 Y152.468 E7.86195
G1 X75.865 Y147.52 E8.04298
G1 X75.828 Y144.936 E8.13752
G1 X75.721 Y142.409 E8.23006
G1 X75.546 Y139.943 E8.32051
G1 X75.298 Y137.439 E8.41257
G1 X74.98 Y134.952 E8.5043
G1 X74.594 Y132.496 E8.59526
G1 X74.137 Y130.038 E8.68673
G1 X73.605 Y127.564 E8.77931
G1 X72.973 Y124.993 E8.87617
G1 X72.77 Y124.214 E8.90563
G1 X72.567 Y123.275 E8.94077
G1 X72.443 Y122.323 E8.9759
G1 X72.403 Y121.644 E9.00078
G1 X72.393 Y121.302 E9.0133
G1 X72.388 Y120.965 E9.02563
G1 X72.388 Y99.028 E9.82822
G1 X72.389 Y98.861 E9.83433
G1 X72.399 Y98.172 E9.85954
G1 X72.453 Y97.212 E9.89472
G1 X72.587 Y96.261 E9.92986
G1 X72.799 Y95.324 E9.96501
G1 X73.088 Y94.408 E10.00015
G1 X73.453 Y93.519 E10.03531
G1 X73.89 Y92.664 E10.07044
G1 X74.397 Y91.848 E10.10559
G1 X74.97 Y91.077 E10.14073
G1 X75.605 Y90.356 E10.17588
G1 X76.297 Y89.691 E10.21099
G0 F6000 X76.726 Y89.901
G1 F1200 X77.467 Y89.32 E10.24544
G1 X78.255 Y88.804 E10.27991
G1 X79.084 Y88.356 E10.31438
G1 X79.948 Y87.981 E10.34884
G1 X80.841 Y87.68 E10.38332
G1 X81.756 Y87.456 E10.41778
G1 X82.486 Y87.334 E10.44486
G1 X85.844 Y86.891 E10.56878
G1 X86.601 Y86.818 E10.59661
G1 X87.063 Y86.789 E10.61354
G1 X87.758 Y86.767 E10.63898
G1 X131.72 Y86.766 E12.24738
G1 X131.879 Y86.767 E12.2532
G1 X132.577 Y86.777 E12.27874
G1 X133.81 Y86.864 E12.32396
G1 X134.989 Y87.013 E12.36744
G1 X135.154 Y87.035 E12.37353
G1 X135.585 Y87.096 E12.38946
G1 X136.256 Y87.172 E12.41416
G1 X136.416 Y87.192 E12.42006
G1 X137.315 Y87.307 E12.45322
G1 X138.244 Y87.466 E12.4877
G1 X139.156 Y87.703 E12.52218
G1 X140.044 Y88.017 E12.55664
G1 X140.903 Y88.405 E12.59112
G1 X141.725 Y88.864 E12.62557
G1 X142.506 Y89.392 E12.66006
G1 X143.239 Y89.983 E12.69451
G1 X143.919 Y90.635 E12.72897
G1 X144.542 Y91.342 E12.76345
G1 X145.102 Y92.099 E12.7979
G1 X145.596 Y92.902 E12.83239
G1 X146.021 Y93.743 E12.86687
G1 X146.372 Y94.617 E12.90133
G1 X146.648 Y95.518 E12.9358
G1 X146.847 Y96.439 E12.97028
G1 X146.984 Y97.597 E13.01294
G1 X147.005 Y97.92 E13.02478
G1 X147.028 Y98.64 E13.05114
G1 X147.028 Y120.569 E13.85343
G1 X147.027 Y120.723 E13.85907
G1 X147.017 Y121.445 E13.88549
G1 X146.964 Y122.385 E13.91993
G1 X146.831 Y123.318 E13.95441
G1 X146.71 Y123.888 E13.97573
G1 X146.614 Y124.287 E13.99074
G1 X146.565 Y124.482 E13.9981
G1 X146.101 Y126.266 E14.06554
G1 X145.548 Y128.673 E14.1559
G1 X145.038 Y131.202 E14.25029
G1 X144.627 Y133.62 E14.34002
G1 X144.269 Y136.138 E14.43307
G1 X143.985 Y138.638 E14.52513
G1 X143.773 Y141.136 E14.61685
G1 X143.634 Y143.592 E14.70685
G1 X143.551 Y147.544 E14.85147
G1 X143.551 Y152.081 E15.01746
G1 X143.55 Y152.235 E15.02309
G1 X143.54 Y152.954 E15.0494
G1 X143.487 Y153.895 E15.08388
G1 X143.354 Y154.828 E15.11836
G1 X143.143 Y155.746 E15.15282
G1 X142.855 Y156.643 E15.18729
G1 X142.491 Y157.512 E15.22176
G1 X142.055 Y158.347 E15.25623
G1 X141.55 Y159.143 E15.29071
G1 X140.98 Y159.892 E15.32515
G1 X140.348 Y160.591 E15.35963
G1 X139.658 Y161.233 E15.39411
G1 X138.917 Y161.815 E15.42858
G1 X138.13 Y162.332 E15.46303
G1 X137.301 Y162.78 E15.49751
G1 X136.437 Y163.156 E15.53198
G1 X135.544 Y163.457 E15.56646
G1 X134.63 Y163.682 E15.6009
G1 X133.699 Y163.829 E15.63538
G1 X132.784 Y163.895 E15.66894
G1 X132.461 Y163.905 E15.68077
G1 X132.118 Y163.91 E15.69332
G1 X88.112 Y163.91 E17.30333
G1 X87.969 Y163.909 E17.30856
G1 X87.271 Y163.9 E17.3341
G1 X86.33 Y163.848 E17.36858
G1 X85.397 Y163.716 E17.40305
G1 X84.479 Y163.506 E17.43751
G1 X83.582 Y163.218 E17.47197
G1 X82.712 Y162.856 E17.50645
G1 X81.876 Y162.421 E17.54093
G1 X81.081 Y161.917 E17.57537
G1 X80.33 Y161.347 E17.60986
G1 X79.631 Y160.715 E17.64434
G1 X78.988 Y160.027 E17.67879
G1 X78.406 Y159.286 E17.71326
G1 X77.888 Y158.499 E17.74773
G1 X77.439 Y157.671 E17.7822
G1 X77.062 Y156.807 E17.81668
G1 X76.76 Y155.915 E17.85114
G1 X76.534 Y155.001 E17.88559
G1 X76.387 Y154.07 E17.92007
G1 X76.318 Y153.101 E17.95561
G1 X76.309 Y152.768 E17.9678
G1 X76.305 Y152.468 E17.97878
G1 X76.305 Y147.514 E18.16002
G1 X76.268 Y144.91 E18.2553
G1 X76.161 Y142.395 E18.3474
G1 X75.985 Y139.905 E18.43873
G1 X75.734 Y137.378 E18.53164
G1 X75.417 Y134.895 E18.62322
G1 X75.028 Y132.42 E18.71488
G1 X74.565 Y129.931 E18.8075
G1 X74.043 Y127.506 E18.89826
G1 X73.398 Y124.879 E18.99722
G1 X73.196 Y124.103 E19.02656
G1 X72.998 Y123.182 E19.06103
G1 X72.878 Y122.248 E19.09548
G1 X72.843 Y121.631 E19.11809
G1 X72.833 Y121.289 E19.13061
G1 X72.828 Y120.965 E19.14246
G1 X72.828 Y99.028 E19.94505
G1 X72.829 Y98.867 E19.95094
G1 X72.839 Y98.178 E19.97615
G1 X72.893 Y97.237 E20.01064
G1 X73.026 Y96.305 E20.04508
G1 X73.238 Y95.387 E20.07955
G1 X73.527 Y94.49 E20.11403
G1 X73.891 Y93.621 E20.1485
G1 X74.327 Y92.786 E20.18296
G1 X74.832 Y91.991 E20.21742
G1 X75.404 Y91.242 E20.2519
G1 X76.036 Y90.543 E20.28638
G1 X76.726 Y89.901 E20.32086
G0 F6000 X77.153 Y90.117
G1 F1200 X77.89 Y89.561 E20.35464
G1 X78.672 Y89.07 E20.38842
G1 X79.494 Y88.649 E20.42221
G1 X80.349 Y88.301 E20.45598
G1 X81.231 Y88.028 E20.48976
G1 X82.544 Y87.771 E20.53871
G1 X85.902 Y87.328 E20.66263
G1 X86.628 Y87.257 E20.68932
G1 X87.09 Y87.228 E20.70625
G1 X87.758 Y87.207 E20.73071
G1 X131.72 Y87.206 E22.33911
G1 X131.873 Y87.207 E22.3447
G1 X132.571 Y87.217 E22.37024
G1 X133.755 Y87.3 E22.41367
G1 X134.934 Y87.449 E22.45715
G1 X135.092 Y87.47 E22.46298
G1 X135.576 Y87.539 E22.48086
G1 X136.207 Y87.61 E22.5041
G1 X136.361 Y87.628 E22.50977
G1 X137.26 Y87.743 E22.54293
G1 X138.169 Y87.9 E22.57668
G1 X139.062 Y88.135 E22.61046
G1 X139.932 Y88.446 E22.64426
G1 X140.771 Y88.831 E22.67804
G1 X141.573 Y89.288 E22.71181
G1 X142.333 Y89.812 E22.74558
G1 X143.045 Y90.4 E22.77937
G1 X143.703 Y91.047 E22.81313
G1 X144.303 Y91.749 E22.84691
G1 X144.84 Y92.5 E22.88069
G1 X145.31 Y93.295 E22.91448
G1 X145.709 Y94.127 E22.94824
G1 X146.035 Y94.991 E22.98203
G1 X146.285 Y95.88 E23.01581
G1 X146.457 Y96.787 E23.04959
G1 X146.545 Y97.625 E23.08041
G1 X146.566 Y97.948 E23.09226
G1 X146.588 Y98.64 E23.11759
G1 X146.588 Y120.569 E23.91989
G1 X146.587 Y120.717 E23.9253
G1 X146.577 Y121.439 E23.95172
G1 X146.524 Y122.36 E23.98547
G1 X146.392 Y123.274 E24.01926
G1 X146.282 Y123.785 E24.03838
G1 X146.186 Y124.184 E24.05339
G1 X146.139 Y124.371 E24.06045
G1 X145.684 Y126.122 E24.12664
G1 X145.105 Y128.637 E24.22106
G1 X144.608 Y131.108 E24.31327
G1 X144.192 Y133.557 E24.40416
G1 X143.833 Y136.081 E24.49743
G1 X143.549 Y138.584 E24.58959
G1 X143.334 Y141.111 E24.68238
G1 X143.194 Y143.585 E24.77304
G1 X143.111 Y147.535 E24.91759
G1 X143.111 Y152.081 E25.08391
G1 X143.11 Y152.229 E25.08932
G1 X143.1 Y152.948 E25.11563
G1 X143.047 Y153.87 E25.14942
G1 X142.915 Y154.784 E25.1832
G1 X142.704 Y155.683 E25.21699
G1 X142.416 Y156.56 E25.25076
G1 X142.053 Y157.409 E25.28454
G1 X141.618 Y158.223 E25.31831
G1 X141.115 Y158.997 E25.35208
G1 X140.546 Y159.724 E25.38586
G1 X139.916 Y160.4 E25.41967
G1 X139.231 Y161.018 E25.45342
G1 X138.494 Y161.575 E25.48722
G1 X137.712 Y162.065 E25.52098
G1 X136.891 Y162.487 E25.55475
G1 X136.036 Y162.836 E25.58854
G1 X135.154 Y163.109 E25.62232
G1 X134.252 Y163.305 E25.65609
G1 X133.336 Y163.422 E25.68988
G1 X132.771 Y163.455 E25.71058
G1 X132.448 Y163.465 E25.72241
G1 X132.118 Y163.47 E25.73448
G1 X88.112 Y163.47 E27.34449
G1 X87.975 Y163.469 E27.3495
G1 X87.277 Y163.46 E27.37504
G1 X86.355 Y163.408 E27.40883
G1 X85.441 Y163.277 E27.44261
G1 X84.542 Y163.067 E27.47639
G1 X83.664 Y162.78 E27.51018
G1 X82.815 Y162.418 E27.54395
G1 X82 Y161.984 E27.57773
G1 X81.226 Y161.481 E27.6115
G1 X80.498 Y160.913 E27.64528
G1 X79.822 Y160.284 E27.67907
G1 X79.203 Y159.599 E27.71285
G1 X78.646 Y158.863 E27.74661
G1 X78.154 Y158.082 E27.78039
G1 X77.732 Y157.261 E27.81416
G1 X77.382 Y156.406 E27.84796
G1 X77.108 Y155.525 E27.88171
G1 X76.911 Y154.623 E27.91549
G1 X76.793 Y153.707 E27.94928
G1 X76.758 Y153.089 E27.97193
G1 X76.749 Y152.756 E27.98412
G1 X76.745 Y152.468 E27.99465
G1 X76.745 Y147.508 E28.17612
G1 X76.708 Y144.885 E28.2721
G1 X76.602 Y142.381 E28.36379
G1 X76.423 Y139.864 E28.45611
G1 X76.174 Y137.35 E28.54854
G1 X75.853 Y134.838 E28.64119
G1 X75.461 Y132.349 E28.73338
G1 X74.992 Y129.824 E28.82734
G1 X74.466 Y127.382 E28.91873
G1 X73.838 Y124.822 E29.01517
G1 X73.622 Y123.993 E29.04651
G1 X73.428 Y123.09 E29.0803
G1 X73.313 Y122.174 E29.11408
G1 X73.283 Y121.619 E29.13441
G1 X73.273 Y121.277 E29.14693
G1 X73.268 Y120.965 E29.15834
G1 X73.268 Y99.028 E29.96093
G1 X73.269 Y98.873 E29.96661
G1 X73.279 Y98.184 E29.99182
G1 X73.332 Y97.263 E30.02557
G1 X73.465 Y96.349 E30.05936
G1 X73.677 Y95.45 E30.09315
G1 X73.965 Y94.573 E30.12692
G1 X74.329 Y93.724 E30.16072
G1 X74.764 Y92.91 E30.19449
G1 X75.268 Y92.137 E30.22825
G1 X75.837 Y91.41 E30.26203
G1 X76.467 Y90.735 E30.29581
G1 X77.153 Y90.117 E30.32959
G0 F6000 X76.898 Y90.931
G1 F1200 X77.58 Y90.338 E30.36265
G1 X78.312 Y89.807 E30.39574
G1 X79.088 Y89.343 E30.42882
G1 X79.902 Y88.95 E30.46189
G1 X80.747 Y88.63 E30.49494
G1 X81.617 Y88.386 E30.528
G1 X82.601 Y88.207 E30.56459
G1 X85.959 Y87.764 E30.68851
G1 X86.656 Y87.696 E30.71414
G1 X87.118 Y87.667 E30.73107
G1 X87.758 Y87.647 E30.7545
G1 X131.72 Y87.646 E32.3629
G1 X131.866 Y87.647 E32.36824
G1 X132.564 Y87.657 E32.39378
G1 X133.699 Y87.737 E32.43541
G1 X134.878 Y87.886 E32.47889
G1 X135.031 Y87.906 E32.48453
G1 X135.507 Y87.973 E32.50212
G1 X136.157 Y88.047 E32.52605
G1 X136.305 Y88.065 E32.53151
G1 X137.204 Y88.18 E32.56467
G1 X138.095 Y88.334 E32.59775
G1 X138.968 Y88.566 E32.6308
G1 X139.818 Y88.875 E32.66389
G1 X140.637 Y89.257 E32.69695
G1 X141.419 Y89.711 E32.73003
G1 X142.158 Y90.232 E32.76311
G1 X142.848 Y90.816 E32.79619
G1 X143.484 Y91.458 E32.82925
G1 X144.06 Y92.155 E32.86233
G1 X144.573 Y92.899 E32.89539
G1 X145.018 Y93.686 E32.92847
G1 X145.391 Y94.509 E32.96153
G1 X145.691 Y95.362 E32.99461
G1 X145.913 Y96.238 E33.02767
G1 X146.058 Y97.131 E33.06077
G1 X146.105 Y97.654 E33.07998
G1 X146.126 Y97.977 E33.09183
G1 X146.148 Y98.64 E33.1161
G1 X146.148 Y120.569 E33.91839
G1 X146.147 Y120.711 E33.92359
G1 X146.137 Y121.433 E33.95001
G1 X146.085 Y122.335 E33.98306
G1 X145.953 Y123.229 E34.01613
G1 X145.854 Y123.682 E34.03309
G1 X145.758 Y124.081 E34.04811
G1 X145.713 Y124.261 E34.05489
G1 X145.254 Y126.027 E34.12165
G1 X144.68 Y128.524 E34.21539
G1 X144.173 Y131.041 E34.30933
G1 X143.755 Y133.5 E34.40058
G1 X143.399 Y136.006 E34.49319
G1 X143.108 Y138.565 E34.58741
G1 X142.897 Y141.05 E34.67866
G1 X142.754 Y143.579 E34.77133
G1 X142.671 Y147.525 E34.91573
G1 X142.671 Y152.081 E35.08242
G1 X142.67 Y152.223 E35.08762
G1 X142.66 Y152.942 E35.11392
G1 X142.607 Y153.845 E35.14702
G1 X142.475 Y154.739 E35.18008
G1 X142.265 Y155.618 E35.21314
G1 X141.977 Y156.475 E35.24622
G1 X141.615 Y157.303 E35.27928
G1 X141.181 Y158.096 E35.31236
G1 X140.679 Y158.848 E35.34544
G1 X140.113 Y159.552 E35.37849
G1 X139.486 Y160.204 E35.41158
G1 X138.804 Y160.798 E35.44467
G1 X138.072 Y161.329 E35.47775
G1 X137.297 Y161.793 E35.5108
G1 X136.483 Y162.187 E35.54389
G1 X135.638 Y162.507 E35.57695
G1 X134.768 Y162.752 E35.61001
G1 X133.879 Y162.918 E35.6431
G1 X132.757 Y163.015 E35.6843
G1 X132.434 Y163.025 E35.69613
G1 X132.118 Y163.03 E35.70769
G1 X88.112 Y163.03 E37.3177
G1 X87.98 Y163.029 E37.32253
G1 X87.282 Y163.02 E37.34807
G1 X86.38 Y162.969 E37.38112
G1 X85.485 Y162.837 E37.41422
G1 X84.606 Y162.628 E37.44728
G1 X83.749 Y162.341 E37.48034
G1 X82.92 Y161.98 E37.51342
G1 X82.126 Y161.547 E37.54651
G1 X81.374 Y161.045 E37.57959
G1 X80.669 Y160.479 E37.61267
G1 X80.017 Y159.853 E37.64574
G1 X79.423 Y159.172 E37.6788
G1 X78.891 Y158.441 E37.71188
G1 X78.426 Y157.666 E37.74494
G1 X78.031 Y156.853 E37.77801
G1 X77.71 Y156.008 E37.81108
G1 X77.465 Y155.138 E37.84415
G1 X77.297 Y154.249 E37.87725
G1 X77.198 Y153.077 E37.92028
G1 X77.189 Y152.744 E37.93247
G1 X77.185 Y152.468 E37.94257
G1 X77.185 Y147.502 E38.12426
G1 X77.148 Y144.896 E38.21961
G1 X77.039 Y142.331 E38.31354
G1 X76.862 Y139.827 E38.40538
G1 X76.61 Y137.284 E38.49887
G1 X76.29 Y134.786 E38.59101
G1 X75.894 Y132.267 E38.6843
G1 X75.429 Y129.765 E38.77741
G1 X74.895 Y127.284 E38.87026
G1 X74.255 Y124.679 E38.9684
